X:1
T:La Valse
T:Poème chorégraphique
T:Maurice Ravel
T:Piano solo arranged by the composer
%%score { ( 1 4 6 ) | ( 2 3 5 ) }
L:1/8
Q:1/4=172
M:3/4
K:C
V:1 bass nm="Piano"
V:4 bass 
V:6 bass 
V:2 bass 
V:3 bass 
V:5 bass 
V:1
"^Mouvement de Valse viennoise" z6 | z6 | z6 | z6 | z6 | z6 | z6 | z6 | z6 | z6 | z6 | %11
!pp! [F,,_A,,]2 [C,D,]3 [F,,A,,] | [C,D,]4 [F,_A,]2 | %13
[K:treble]!p!!>(! !//-![cd_a]2 _A2 !//-![CDA] _A, | !//-![CD_A] _A,[K:bass] !//-![D,_A,]2 C,2!>)! | %15
 z2!pp! [C,D,]2 [E,,F,,]2 | [F,,_A,,]4 .[_C,_D,]2 | z2 .[_C,_D,]2 x2 |!pp! !//-!_C3 _D3 | x6 | z6 | %21
 z6 | z6 |!p! [F,,_A,,]2 [_B,,D,]3 [F,,A,,] | [_B,,D,]4 [_A,_B,]2 | %25
[K:treble]!pp! !//-![d_a_b]2 ^c2 !//-![D_A_B] ^C | !//-![D_A_B] ^C[K:bass] !//-![D,_A,_B,]2 ^C,2 | %27
 z2!p! [D,F,]2 [_A,,_B,,]2 | [G,,=B,,]4 .[F,G,]2 | z2 [F,G,]2 [F,F]2- |!pp! [F,F]6 | z6 | z6 | %33
!pp! D,,2!<(! ^F,,3 D,, | G,,3 D,,!<)! ^G,,2 |!p! [^C,E,]2!<(! [G,_A,]3 [C,E,] | %36
 [G,=A,]3 [^C,E,] [^F,^A,]2!<)! |!mp!!>(! z6!>)! | %38
!p! !arpeggio![C,^F,A,]2!<(! [CE]3!mp! [F,A,]!<)! |!>(! [CE]4!>)!!p! [^F,A,]2 | %40
!<(! !arpeggio![G,B,]2 [DE]3!<)!!mp! [G,B,] |!>(! [DE]4!>)!!p! [G,B,]2 | %42
!mf! [^G,B,]2!<(! [D^F]3!<)! [G,B,] |[K:treble]!pp! d3 ^c3 | d3[K:bass]!pp! ^F3- | F6 | %46
 z3[K:treble]!p! ^E3 |!p! ^F2!p! ^G2!mp! A2 |!mp! d3!mp! G3 | %49
 z/!<(! d/g/_b/ [dbd']2 z!<)!!mp! [d^f]- | [dfac']4!p! [dg_b]2 | z/ G/_B/d/ [^fa]2 z!mp! [A^c]- | %52
!>(! [Ac^fa]4!>)!!p! [_Bdg]2 | z/!<(! D/^G/B/ [d=f]2 z!<)!!p! [E=G]- | %54
!>(! [EG^ce]3 [=F^G]!>)!!pp! [_Bd]2- | [Bd][^CE] [=F_B]3!pp! [^G,D] | %56
[K:bass]!<(! z2!p! [E,A,^C]2!mp! [F,_B,D]2!<)! |[K:treble]!>(! .[=F_B^c]2 z .[FBc]!>)!!p! [FBc]2 | %58
[K:bass] z2 ^F,2 G,2 |!mp!!>(! .[_B,D^F]2 z .[B,DF]!>)!!p! .[B,DF]2 | %60
!<(!!<(! z2 ^C,,2!mp! D,,2!<)!!<)! |!mf! _B,,4!>(! B,,2- | B,,2!mp! _B,,,4- | B,,,2!p! _B,,,4- | %64
 B,,,2 z2 z2!>)! || %65
[K:D]!<(![I:staff +1] (8:6:8_B,,,[I:staff -1]A,,,B,,,!p!D,,!<)!F,,!>(!D,,B,,,!pp!A,,,!>)! | %66
!<(![I:staff +1] (8:6:8D,,[I:staff -1]A,,_B,,!<)!!p!D,F,!>(!D,B,,!pp!A,,!>)! | z2 A,,2 z2!p! | %68
 [F,A,]4!p! [B,D]2- | [B,D]4- [B,D]!pp![F,A,] | !>![B,D]4 .[A,FA]2 | z2 !arpeggio![D,F,]2 z2 | %72
 z2 !>![B,D]4- | [B,D]2 [^D,F,]4 |!pp! [E,G,]4!p! .[A,C]2 | z2!pp! !arpeggio![C,G,A,C]4 | %76
[I:staff +1] (8:6:8E,,[I:staff -1]^G,,A,,!p!C,=G,C,A,,!pp!G,, | %77
 (8:6:8z!<(! A,,^G,,!<)!!p!A,,!>(!^A,,B,,A,,!>)!!pp!=A,, |!p!!<(! [E,G,]4!<)!!mp! [B,D]2- | %79
!>(! [B,D]4- [B,D]!p![E,G,]!>)! | [B,D]4 .[GB]2 | z2 !arpeggio![A,,C,G,]2 z2 | z2 [B,EG]4- | %83
 [B,EG]2 [^E,^A,C]4 | [F,B,D]4 .[DFAB]2 | z3 (4:3:4!arpeggio![DFAB]AFD | %86
!>(! (8:6:8B,A,F,!pp!D,[I:staff +1]B,,A,,F,,D,,!>)! | %87
[I:staff -1] (8:6:8z A,,^G,,!p!A,,^A,,!>(!B,,!pp!A,,=A,,!>)! |!p! [F,A,]4!mp! [B,D]2- | %89
 [B,D]4- [B,D]!p![F,A,] | [B,D]4!mp! .[A,FA]2 | z2!p! !arpeggio![D,F,]2 z2 | z2 [B,D]4- | %93
 [B,D]2 [D,F,]4 |!<(! [C,F,A,]4!mp! .[A,CF]2!<)! |!>(! z2 FC!p!A,D,!>)! | x6 | %97
[K:treble]!p! ^DE^E-[EA]-[EAc]=d | [^E^Ac]2 z2 [DFB]2 | z2 z2 [^Ec]^G | [CFB]2 z2 [CFA]2 | %101
 z2 z2 [^B,^D^G]F |!p! [^B,^D^G]4!pp! [B,DF]2 | .[^G,=DF].[G,DF] .[G,DF]2 .[G,DE]2 | %104
[K:bass] (5:4:5z/ B,,/C,/E,/G,/[I:staff +1]B,/C/E/G/[I:staff -1][K:treble]B/c/e/g/ |!p! b3!p! ^A3 | %106
!mp!!>(! b3 c3!>)! |!p! c6 | x3!p! ^B3 |!p!!<(! c2!p! e2!mp! g2!<)! |!mp!!>(! b4 d2!>)! | %111
 (8:6:8z!pp! F,B,DFDB,F, | z2 d'2!p! c'2 |!p! d'2!mp! b2!mp! f2 |!mf! [cfc'-]6 | %115
 c'2!mf! !arpeggio![Fcf]2 [Aa]2 | .[c=gc']2 z2 !arpeggio![cgc']2- | %117
 [cgc']2 !arpeggio![Gcg]2 [^A^a]2 | .[c^gc']2 z .[cgc'] [cgc']2- | [cgc']2 [^Gc^g]2 [cc']2 | %120
 [^Gc^g]2 !arpeggio![Aa]2 [cfc']2 | e'3!f! ^d3 |!f!!>(! e'3 f3!>)! |!mf! f6 | x4!mf!!<(! ^e2 | %125
!mf! f2!mf! a2!f! =c'2!<)! |!f!!>(! e'4!mf! g2!>)! | z2 f2!mp! g2 | z2 a2!mf! b2 | %129
!f! z2 !arpeggio![dgbd']3 [dg] | (3d'bg!f! (3d-[dg]-[dgb]- .[dgbd']2 | z2 !arpeggio![dgbd']3 [dg] | %132
!>(! (3!>!d'bg!f! (3d-[dg]-[dgb]-!>)! .[dgbd']2 | z2 !arpeggio![Bdfb]3 [Bd] | %134
 (3!>!bg^d (3B-!mf![Bd]-[Bdg]- .[Bdgb]2 | z2 !arpeggio![=cegb]3 [^c^e] | %136
 (3!>!baf (3d-!f![df]-[df=a]- .[dfab]2 | z2 .[dfbd']3 .[dfbd'] | !>![dgbd']4 .[dgbd']2 | %139
 z2 .[dgbd']3 .[dgbd'] | !>![dfbd']4 .[dfbd']2 | z2 .[Bdfb]3 .[Bdfb] | %142
 !>![Bcgb]3 .[CF^Ac] .[CFAc]2 | !>![Bcgb]3 .[CF^Ac] .[CFAc]2 | [Bcgb]3 !>![=Aca]!>![Acg]!>![Ace] | %145
 !>![FAd]2!mp! A2!>(! ^A2!>)! |!p! a3 ^A !>!=a2- | ag f3 c | e3 ^E !>!=e2- | ed B3 F | %150
 G3 B,- [B,G]2- | [B,G]^B,- .[B,G]2 .[CG]2 | [EG]4 [DF]2 | z2!mp! ^E!>(!FA^A!>)! | %154
!p! =a3 ^A !>!=a2- | ag f3 c | e3 ^E !>!=e2- | ed B3 F |!<(! C!pp!Ac!p!D^D!pp!A | %159
!mp! cE^E!p!Ac!<)!!mf!A |!mf! c3!mp! d ^d2- | d!p!^e .f2 z2 |!p!!<(! [aa']3 ^a!<)!!mp! [=a=a']2- | %163
 [aa']g' [ff']3!p! c' |!<(! [ee']3 ^e!<)!!mp! [=e=e']2- | [ee']d' [Bb]3!p! f | %166
!<(! [Gg]3 B-!mp! [GBg]2- | [GBg]^B-!<)! .[GBg]2 .[Gcg]2!p! | [Geg]4!mp! [Fdf]2- | %169
 [Fdf]2 ^e!>(!fa!p!^a!>)! | [aa']3 ^a!mp! [=a=a']2- | [aa']g' [ff']3!p! c' | %172
 [ee']3 ^e!mp! [=e=e']2- | [ee']d' [Bb]3!p! f |!<(! FdfG^Gd |!mp! fA^Adf!<)!!mf!d | f3!mp! g ^g2- | %177
 g!p!^a b2 z2 ||[K:C]!<(! d'3!p! ^f!mp! d'2-!<)! |!>(! d'g!p! .[dg^c']2 .[^B^d^g=b]2!>)! | b4 a2 | %181
 z2 ^de^ga |!<(! c'3!p! e!mp! c'2-!<)! |!>(! c'f-!p! .[cfb]2!>)! .[^A^c^f=a]2 | a4 g2 | z2 ^cd^fg | %186
 _b3!p! d b2- | b_e- .[_B_de_b]2!mf! .[Bd=eb]2 | [_Bg_b]4 [_Af_a]2 | z2 _b2 _a2 | %190
!<(! g3!mp! =B g2- | gc g3!<)! ^c |!>(! g3!mp! dgd!>)! |!p! _e2 z2 z2 | %194
!<(! [_e_e']3 g-!<)!!mp! [dgd']2- |!>(! [dgd']^g!p! .[^cg^c']2!>)! .[Bgb]2 | [B=ceb]4!<(! [Aa]2 | %197
 z2!<)!!>(! ^de!p!^g!>)!a |!<(! [cc']3!mp! e-!<)! [Beb]2- | %199
!>(! [Beb]^e-!p! .[^Ae^a]2!>)! .[^Ge^g]2 | [^G=A^c^g]4 [^F^f]2 | z2!>(! ^B^c!p!^e!>)!^f || %202
[K:D]!<(! a3!p! c a2- | ad- .[Adda]2!<)!!mf! .[A=c^da]2 | [Afa]4 [Geg]2 | z2 a2 g2 | %206
!<(! f3 ^A f2- | f!mp!B f3!<)! ^B |!>(! f3!p! cf!>)!c | d2 x4 ||[K:Bb] z2 [D=EBd][DEBd] .[DEBd]2 | %211
 [DFBd][DFBd] .[DFBd]2 [D^FBd][DFBd] | .[D^FBd]2 .[DGBd]2 .[D_ABd]2 | [=B,_EG=B]3 [DGBd] [DGBd]2- | %214
 [DGBd]2 [=E_Ac]2 [=B_eg]2 |!fff!!<(! ^fg=bc'd'e'!<)! | z2!8va(! !>![be'g'b']4 | %217
 !>![be'g'b']4 !>![be'g'b']2 | z2 [be'g'b'][be'g'b'] .[be'g'b']2 | %219
 [ad'^f'a'][ad'f'a'] .[ad'f'a']2 [gc'e'g'][gc'e'g'] | .[gc'e'g']2 .[^f=b_e'^f']2 .[gc'e'g']2 | %221
 [d'^f'a'] a^c'd'^e'=f' |!ff! a'^f'!>(!a'g'=f'd'!8va)! | c'bag^c!>)!!p!=e | z2 [DA]4 | %225
 [DG]4 [D^F]2 |!ff! z2 [D=EBd][DEBd] .[DEBd]2 | [DFBd][DFBd] .[DFBd]2 [D^FBd][DFBd] | %228
 .[D^FBd]2 .[DGBd]2 .[D_ABd]2 | [=B,_EG=B]3 [DGBd] [DGBd]2- | [DGBd]2 [=E_Ac]2 [=B_eg]2 | %231
 ^fg=bc'd'e' | z2!8va(! [bd'=e'b']4 | [bd'=e'b']4 [bd'e'b']2 | a'g'a'g'=e'b | g'4 f'2 | %236
 g'f'g'f'd'_a | f'4 e'2!8va)! | d'c'd'c'bd | a4 g2 | [Aeg][Aeg] [Aeg]2 [A,EGA]2 | %241
 [B,DFB]2 z2!p! B,2 ||[K:Eb]!p! !>!B6- | B2 !>!C2- !>!E2- | !>![CE-B-]6 | [EB]2 !>!C2 !>!E2- | %246
 !>!B2 !>!C2 !>!E2- | !>!B2 !>!C2 !>!E2- | !>!B4 !>!A2- | A2 !>!C4 | !>![=A,EG]6- | %251
 [A,EG]2 !>!=A,2 !>!C2 | !>![=A,EG]6- | [A,EG]2 !>!=A,2 !>!C2 | !>![=A,EG]2 !>!A,2 !>!C2 | %255
 !>![EG]2 !>!=A,2 !>!C2 | !arpeggio!!>![F,B,DG]2 z !>!D !>!.=A2 | z !>!D !>!.F2 z2 | !>!B6- | %259
 B2 !>!C2- !>!E2- | !>![CE-B-]6 | [EB]2 !>!C2 !>!E2- | !>!B2 !>!C2 !>!E2- | !>!B2 !>!C2 !>!E2- | %264
 !>!B4 !>!A2- | A2 !>!C4 | !>![=A,EG]6- | [A,EG]2 !>!=A,2 !>!C2 | !>![=A,EG]6- | %269
 [A,EG]2 !>!=A,2 !>!C2 | !>![=A,EG]2 !>!A,2 !>!C2 | !arpeggio!!>![_A,EG]2 z !>![A,C] !>!.[_EG]2 | %272
 z !>![G,B,] !>!.[CE]2 z2 |!p! ^FG=ABFG ||[K:F] dGdG d2- | d^GdG d2- | dAdA !arpeggio![FAd-]2 | %277
!p!!<(! d=B!arpeggio![FAd]c!arpeggio![Adf]!<)!a |!mf! a!<(!^cac a2- | adad!<)! a2- | %280
!f!!>(! aegfdA | c BAB!>)!^FG |!p! dGdG d2- | d^GdG d2- | dAdA !arpeggio![FAd-]2 | %285
!<(! dB[FAd]!mp!c!arpeggio![Adf]!<)!a |!mf! c'^d!<(!c'd c'2- | c'ec'e c'2- | c'!f!fc'^f=b!<)!a | %289
!f! a=B g2 !arpeggio![GBdg]2 ||!8va(! [_bd'f'_b']3!8va)! .[GB^c_e] .[GBce]2 |!f! z2 [=E^G=Bd=e]4 | %292
 z2 .[FA=B^c]2 .[^GB=ce]2 | z2 .[fa=b^c']2 .[^gb=c'e']2 | %294
!ff!!8va(! [_bd'f'_b']3!8va)! .[GB^c_e] .[GBce]2 | z2 [=E^G=Bd=e]4 | z2 .[FA=B^c]2 .[^GB=ce]2 | %297
 (3[a=b^c']!<(!f[abc'] (3[a=c'd']f[ac'd'] (3[_c'_e'f']_a[c'e'f']!<)! | %298
!ff!!8va(! [_bd'f'_b']3!8va)! .[GB^c_e] .[GBce]2 | z2 [=E^G=Bd=e]4 | z2 .[FA=B^c]2 .[^GB=ce]2 | %301
 z2 .[fa=b^c']2 .[^gb=c'e']2 |!ff!!8va(! [_bd'f'_b']3!8va)! .[GB^c_e] .[GBce]2 | z2 [=E^G=Bd=e]4 | %304
 z2 .[fa=b^c']2 .[ac'f']2 |!ff! x4 [A,CFA]2 |!f! [aa']3 [Aa] [Aa]2 | z!<(! b=bc'!mp!^c'!<)!=f' | %308
!>(! e'^c'e'd'c'=c' | ^c'=c'=bc'b!>)!!p!_b |!f! [aa']3 [Aa] [Aa]2 | z!<(! ^gab=b^c' | %312
!8va(! e'^c'd'f'-!<)!!mp! [f'^g'^c'']2!8va)! | z2 !arpeggio![D^G_Bd]2 !arpeggio![FAcf]2 | %314
!f! [aa']3 [Aa] [Aa]2 | z!<(! b=bc'^c'!<)!!mp!=f' |!>(! e'^c'e'd'c'=c' | ^c'=c'=bc'b!>)!!p!_b | %318
!f! [aa']3 [Aa] [Aa]2 |!mf! z2!<(! a2-!<)! [ac'_e'f']2 |!f! [g_b^c'_e']6 | %321
 z2!<(! A2- [Ac_ef]2!<)! | [^Fcd]6 |!<(! z2 D2-!<)! [DF_AB]2 |!mf! [=B,DFG]6 | %325
[K:bass] z2!<(! G,2- [G,_B,_D_E]2!<)! |!mf! [=E,G,B,C]4!p! C,2- | C,2-!mf! [C,_G,_A,]4 | %328
 [A,,_E,F,]6- | [A,,E,F,]4!p! ^F,[=B,D] ||[K:D] [^A,C]4 [D,F,][B,D] | [^A,C]4 [D,F,][B,D] | %332
 [F,^A,]4 .[A,C]2 | [^A,C]4 [G,B,][EG] |!p! [F=A]4 [G,B,][EG] | [B,D]4[K:treble] [G,=CE]B | %336
 [^C^EB]4 .[^G,CE]2 | [DFB]4[K:bass]!mf! [F,A,][DF] | [^E^G]4 [F,A,][DF] | [D^E]4 [F,A,][^DF] | %340
 .[DF]2 z2 [G,B,D-E-]2 | [DE]2 [^G,^A,]3 [G,B,] | .[DF]2 z2 [G,B,D-E-]2 | [DE]2 [^G,^A,]3 [G,B,] | %344
!mf!!>(! .[DF]2 [=G,B,^D]2 [^G,^B,E]2 | [C^E=A]4!>)![K:treble]!p! [=FA][^c=f] || %346
[K:F] [E^G^ce]4 [FA][df] | [E^G^ce]4 [FA][df] | [^CA^c]4 .[E^ce]2 | [EA^ce]4 [Bd][gb] | %350
 [=cea=c']4 [Bd][gb] | [^FBd^f]4 [_eg][bd'] | [d=e^gd']4 .[^Geg]2 | [dfad']4!f! [fa][d'f'] | %354
 [ge'g']4 [fa][d'f'] | [e^c'e']4 [fa][d'f'] | [fd'f']4 .[Bgb]2 | [fd'f']4!<(! [d^f][d'=f'] | %358
 [dbd']4 [_eg][d'f'] | [dbd']4 [=e^g][d'f'] | [d^gd']4 [fa][d'f'] | %361
 [dad']4!<)!!ff!!8va(! [ac'][f'a'] ||[K:D] [bf'b']4 [a=c'][f'a'] | [^gf'^g']4 [a=c'][f'a'] | %364
 [=c'f'=c'']4 .[_bg'_b']2 | [_bg'_b']4!8va)! [gb][d'g'] |!>(! [df=bd']4 [df][bd'] | %367
 [B^dgb]4 [Bd][gb] | [G=ceg]4 A!>)![^cf] |!f! [FAd]2 z2!p! [dfd']2- || %370
[K:Bb][Q:1/4=160]"^Un peu plus modéré" [dfd']6- | [dfd']2 ^f4 | [D^Fd]4 [Be][gb] | z2 [Be]2 [gb]2 | %374
 z2 [B^fb]4- | [Bfb]2 ^c4 | [^CA^c]4 [Bd][fa] | z2 [Bd][fa] z2 | z2 [G=Bg]4- | %379
 [GBg]2 [F_Af]2 [EGe]2 |!f! [^F,D^F]4 G[D=Bd] | z2 [DG=Bd]4- | [DGBd]2 [CEGc]2 [G,_B,EF]2 | %383
 [G,B,DG]4 [DFB]2- | [DFB]2 [DFAd]4 |!f!!>(! [FGBdf]2 .g2!>)!!p! [f_d'f']2- ||[K:Db] [fd'f']6- | %387
 [fd'f']2 a4 | [F=Af]4 g[dbd'] | z2 g[dbd'] z2 | z2 [d=ad']4- | [dad']2 =e4 | [Ec=e]4 f[cac'] | %393
 z2 f[cac'] z2 | z2!<(! [Aca]4- | [Aca]2 [GBg]2!<)! [FAf]2 | =A2 _B2!mf!!<(! [_B-=df-_b-]2 | %397
 [B_dfb]2 [_Ac=e_a]2!<)! [=GB=d=g]2 || %398
[K:C][Q:1/4=172]"^Revenez au Mouvement" B2 =c2!f! [c-eg-=c'-]2 | %399
!<(! [c_egc']2 [_Bd^f_b]2 [=E^G^c]2 | [e=g=be']2 [d^f^ad']2 [^G^B^e]2 | %401
!8va(! [^d'^g'][=c'e'][e'=g'][^c'^e'][=f'_b'][=d'^f'] | %402
 [^f'a'][_e'g'][g'c''][=e'^g'][g'b']!<)![=f'a']!8va)! ||[K:A] z2 z2!mp! (3[eac']d'c' | %404
 .[^dg^b]2 z2 .[eac']2 | z2 [^B^eg]a[Be]^f | [ac'f']2 z [ac'f'] [ac'f']2 | %407
!<(! z2 (3^d'^bg (3e'c'a!<)! |!mf!!>(! .[c'^e'=b']2 z2!mp! .[c'f'a']2 | %409
 z2 .[ac'f']2 z!>)! .[egc'] | [egc']6 |!f! (7:6:7e'/c'/^a/g/e/c/^A/G/E/C/^A,/G,/E,/ | x6 | %413
 z2 z2!mp! (3[fbd']e'd' | .[^e^ac']2 z2 .[fbd']2 | z2 [c^e^a]b[ce]f | %416
 .[bd'f']2 z .[bd'f'] .[bd'f']2 |!<(! z2 (3^e'c'!mf!^a (3f'd'!<)!b | %418
!8va(!!>(! .[d'a'c'']2 z2!mp! .[e'g'b']2!8va)! | z2 .[bd'f']2 z!>)!!p! .[^B^dg] | %420
!p!!<(! [fac']6!<)! | e'/c'/a/f/e/c/A/F/E/D/A,/F,/ || %422
[K:C]!>(![I:staff +1] (7:6:7G,,/D,/F,/B,/[I:staff -1]F/A/B/d/f/ a/b/d'/!>)!!mf!f'/ | %423
 z2 z2!mf! (3[ad'f']g'f' |!<(! .[^g^c'e']2 z2 .[ad'f']2 | z2 [e^g^c']!f!d'[eg]!<)!a | %426
!>(! .[ad'f']2 z .[ad'f'] .[ad'f']2 | z2!>)! z2!mf! (3[ad'f']g'f' | .[^g^c'e']2 z2 .[ad'f']2 | %429
 z2 [e^g^c']d'!f![eg]a |!f! .[fad'f']2 z .[fad'f'] .[fad'f']2 |!mp! z2!mp! [e^g^c']d'[eg]a | %432
 .[fd'f']2 [e^g^c']d'[eg]a | .[fd'f']2 [e^g^c']d'[eg]a | .[fd'f']2 [e^g^c']d'[eg]a | %435
 .[fd'f']2 [e^g^c']d'[eg]a | [d'f']^ga[d'f']ga | [d'f']^ga[d'f']ga | %438
!ff!!8va(! (9:6:9!>!e''!>(!f''e''!>!e'f'e'!8va)![I:staff +1]!>!efe | %439
[I:staff -1] (9:6:9!>!EFE[I:staff +1]!>!E,F,E,[I:staff -1][K:bass]!>!E,,F,,!>)!!pp!E,, | z6 | %441
!p! [F,,_A,,]2 [C,D,]3 [F,,A,,] |!<(! [C,D,]4 .[F,A,]2!<)! | %443
[K:treble]!mp! !//-![cd_a]2!>(! _A2 !//-![CDA] _A, | !//-![CD_A] _A,[K:bass] !//-![D,_A,]2 C,2 | %445
 z2!>)! [C,D,]2 [E,,F,,]2!p! | [F,,_A,,]4 .[_C,_D,]2 | z2 .[_C,_D,]2 [F,F]2 | %448
[K:treble] z/!<(! _E/_A/_c/- [c_e]2 z!<)!!mp! [EG] |!>(! [_B_d]4!>)!!p! [_A_c]2 | %450
 z/!<(! _C/_E/=G/ [G_B]2 z!<)!!mp! [_B,=D] |!>(! [G_B]4!>)!!p! [_E_A]2 | %452
[K:bass] z/!mp! _E,/!<(!_A,/_C/- [C_E]2 z!mf! [E,=G,]!<)! |!>(! [_B,_D]3 [E,G,] [_A,_C]2- | %454
 [A,C][=D,F,] [G,_B,]3 [B,,D,] | [_E,_A,]3 [_A,,_C,]!>)!!p! [=D,_G,]2- | %456
 [D,G,]!>(![_G,,_B,,] z2!>)! x2 | [F,_A,]2 [_C_E]3!mp! [F,A,] | [_C_E]4!p! [F,=A,]2 | %459
!<(! [_G,_B,]2 [_D_E]3!<)!!mp! [G,B,] |!>(! [_D_E]4!p! [_G,_B,]2!>)! | %461
[K:treble]!<(! [F_A]2 [_c_e]3!<)!!mp! [FA] |!>(! [_c_e]4!p! [F=A]2!>)! | %463
!<(! [_G_B]2 [_d_e]3!<)!!mp! [GB] |!>(! [_d_e]4!p! [G_B]2!>)! | %465
!mf!!<(! [=G,_B,]2 [_DF]3 [G,B,]!<)! | _d3 c3 |!mp! _d3[K:bass] F3 | F6 |[K:treble] z3!p!!<(! =E3 | %470
 F2 G2 _A2 | [^E=A^c]2!<)!!mf! [c^ea^c']2 z!f! [ce]- ||[K:A]!f! [cegb]4 [cfa]2 | %473
 z2!<(! !arpeggio![Ac^eg]3!<)!!f! [A^B]- |!>(! [AB^e^g]4!>)!!mf! [Acf]2 | %475
 z2!<(! !arpeggio![C^EAc]3!<)!!f! [CE]- | [CEGB]3 [^B,^D] [FA]2- | [FA][=A,^B,] [^EG]3 [G,B,] | %478
 [CF]3[K:bass] [F,A,] [C=E]2- | [CE] x x4 | .C2 G,C .C2 | .[=D,^A,]2 C3 B, | FCFC .E2 | %483
 =G,,F,,G,,F,, z2 |[K:treble]!p! Ec .^c2 Fc | .^c2 Gc .c2 | .^A2 c3 =B | fcfc .e2 | %488
 e!<(!c' c'2 fc' | ^c'2 gc' c'2 | ^a2 c'3 ^b!<)! |!ff! A/c/^e/a/- .[a^e'a']2 z [ac'] | %492
 !>![g=e'g']4 [fc'f']2 | z/ e/a/c'/- .[c'e']2 z [eg] | !>![^db^d']4 [cac']2 | %495
 z2 !>![=fa]2 z [A^B] | [eg]3 [A^B] [cf]2- | [cf][FA] [^Be]3 [^EG] | [Ac]3 [C^E] [G=B]2- | %499
!f! [GB][^B,^D] .[CFA]2 .[=DF]2 ||[K:C]!ff! [f_ac'f']3 .[dea_b] .[deab]2 | z2 [=B,^D^F=A=B]4 | %502
 z2 .[CE^F^G]2 .[^DF=GB]2 | z2 .[ce^f^g]2 .[^df=gb]2 |!ff! [f_ac'f']3 .[dea_b] .[deab]2 | %505
 z2 [B,^D^FAB]4 | z2 .[CE^F^G]2!ff! .[^DF=GB]2 | %507
!p! (3[e^f^g]!<(!^G[efg] (3[e=ga]A[ega] (3[_gb_c']c[gbc']!<)! | [f_ac'f']3 .[dea_b] .[deab]2 | %509
 z2 [=B,^D^F=A=B]4 | z2 .[CE^F^G]2 .[^DF=GB]2 | z2 .[ce^f^g]2 .[^df=gb]2 | %512
!ff! [g_bd'g']3 .[e^fbc'] .[efbc']2 | z2 [=FG=B^c=f]4 |!ff! [a=c'e'a']3 .[^f^gc'd'] .[fgc'd']2 | %515
 z2 [=GA^c^d=g]4 | [B=d^fb]3 .[de] .[de]2 | [d=f=ad']3 .[fg] .[fg]2 | %518
!8va(! [f_a=c'f']2 .[a_b]2 [a_c'_e'_a']2 | .[_c'_d']2 [=b=d'^f'=b']2!fff! .[d'e']2!8va)! || %520
[K:Eb]!p! z/!<(! A/c/f/ [fa]2 z!<)!!mf! [Ac] | [G=eg]4!p! [Ff]2 | %522
!<(! z/ A/c/f/ [fa]2 z!<)!!mp! [Ac] |!>(! [G=eg]4!>)!!p! [Ff]2 | %524
[K:bass]!p![I:staff +1] =E,!<(![I:staff -1]F,G,A,=B,C!<)! |[K:treble]!mf! =EFGAEF | cFcF c2- | %527
 c^FcF c2 | cGcG !arpeggio![CEc]2 | c=AcB!arpeggio![Gce].g || %530
[K:Db] (5:4:5z/ B/d/e/g/- [Bgb]2 z!mp! [=Ac] |!>(! [f_a]4- [fa]!>)!g |[K:bass] x6 | %533
[K:treble] (5:4:5z/!<(! B/d/e/g/- [Bgb]2 z!<)!!mp! [=Ac] |!>(! [f_a]4- [fa]!>)!g |[K:bass]!ff! x6 | %536
[K:treble]!f! z2!>(! !>![gb]3 [=Ac] | [f_a]3 B!>)! !>![eg]2- |!mf! [eg][EG] [Bd]3 [GB] | %539
 [DF]2 [=G=df]3 [=B=g] |!<(! [cf]2!8va(! !arpeggio!!>![c'f'a'c'']2!f! z!<)! [c'e'] | %541
!f! !>![=g'_b']3 [ac'] !>![f'a']2- | [f'a'][fa] !>![c'e']3 [ac']!8va)! | .[e=g]2 [=eg]3 [=A^c=a] || %544
[K:C] [Gdg]2 !arpeggio!!>![f_bd'f']2 z [fa] | !>![e^c'e']4 .[d_bd']2 | %546
 z2 !arpeggio!!>![fad'f']2 z [ac'] | !>![e^c'e']4 .[d_bd']2 | z2 !arpeggio![fad'f']2 z [fa] | %549
 ^c!<(!defcd | efg_aef | g^g^ab^^fg |!8va(! ^ab^c'd'ab | ^c'd'e'f'c'd' | e'f'g'^g'e'^e' | %555
 ^^f'^g'^a'b'f'g'!<)! |!ff! [=f'=a'd'']2!8va)! [A,A]4- | [A,A]2 B,2 D2 | [A,FA]6- | %559
 [A,FA]2 B,2 D2 | [A,FA]2 B,2 D2 | [A,FA]2 B,2 D2 | [A,FA]4 [G,G]2- | [G,G]2 B,4 | %564
[K:bass] [^F,^G,D^F]6- | [F,G,DF]2 ^G,2 B,2 | [^F,^G,D^F]2 G,2 B,2 | [^F,^G,D^F]2 G,2 B,2 | %568
 [^F,^G,D^F]4!>(! [E,E]2- | [E,E]2!>)!!f! [^G,,^G,]4 |!f! [D,=G,D]6- | [D,G,D]2 E,2 G,2 | %572
 [D,=G,D]6- | [D,G,D]2 E,2 G,2 | [D,G,D]4 [_B,,_B,]2- | [B,,B,]2 D,4 | [A,,A,]4 [G,,G,]2- | %577
 [G,,G,]2 _B,,4 ||[K:D][Q:1/4=184]"^Un peu plus vif et en accélérant"!pp! z2 !>!^A,,4 | %579
 z2 !>!^A,,4 | z2 !>!^A,,4 | z2 !>!^A,,4 | z2 !>!^A,,4 | z2 z2!p! F,,D, | C,4 F,,D, | C,4 F,,D, | %586
 ^A,,4 .C,2 | C,4!p! B,,G, | A,4 ^A,,G, | ^D,4!mp! E,=B, | B,4 .^E,2 | B,4 F,[B,D] | %592
 [CE]4 F,[B,D] | [^A,C]4 F,[B,=D] | [B,D]4 .G,2 | [B,D]4!p! ^D,=D | B,4 E,D | [G,B,]4!mp! ^E,D | %598
 [F,B,]4 F,D |!>(! [F,B,]4!>)![K:treble] [F,A,][DF] | [^E^G]4 [F,A,][CF] | [D^E]4!p! [F,A,][DF] | %602
 [^EA]4 [A,C]2 | [A,C]4 [A,C][FA] | [^GB]4!mp! [A,C][FA] | [^E^G]4 [A,C][FA] | %606
!>(! [Ac]4 [A,C^D]2!>)! |!p! [A,C^D]4!p! [CD][Ac] ||[K:Db] !>![=E=Ac]4 !>!=E!>![Ad] | %609
 !>![F=Ac]4 !>!F!>![Bd] | !>![F=A]4 !>!.[Ac]2 | !>![=Ac]4 !>![GB]!>![eg] | %612
"_cresc." !>![_fa]4 !>![A_c]!>![=dg] | !>![=A=d]4 !>![Be]!>![gb] | !>![=eb]4 !>!.[ce]2 | %615
 !>![fb]4 !>![cf]!>![=ac'] | !>![c=ac']4 !>![dg]!>![ad'] | !>![ec'e']4 !>![d=g]!>![=ad'] | %618
 !>![d=ad']4 !>!.[GB_g]2 | !>![GBg]4 !>![B=d]!>!_d' | !>![B_gb]4 !>![Be]!>!d' | %621
 !>![B_gb]4 !>![B=e]!>!d' | !>![Bfb]4 !>![_df]!>!d' | !>![Bfb]4 !>![=e=g]!>![^c'=e'] || %624
[K:E]!mf![Q:1/4=190]"^Accélerez" !>![fd'f']4 !>![eg]!>![c'e'] | !>![d^bd']4 !>![e^g]!>![c'e'] | %626
!f! !>![ge'g']4 !>!.[^A^g^a]2 |!f! !>![^Ag^a]4[Q:1/4=202]!8va(! !>![^gb]!>![e'g'] | %628
 !>![^a^^f'^a']4 !>![gb]!>![d'g'] | !>![^^fd'^^f']4 !>![gb]!>![d'g'] |!f! !>![bg'b']4 !>!.[dbd']2 | %631
!f! !>![d=bd']4 !>![bd']!>![a'b'] |!f! !>![c'd'a'c'']4 !>![bd']!>![a'b'] | %633
!f! !>![^a^d'=a'_b']4 !>![b^d']!>![a'=b'] |!f! !>![c'd'a'c'']4 !>![b^d']!>![a'b'] | %635
!f! !>![^ad'=a'_b']4[Q:1/4=208] !>![b^d']!>![a'c''] | %636
!f! !>![c'd'a'c'']2 !>![bd']!>![a'b'] !>![^ad'=a'_b']2 | !>![bd'][a'b'] [c'd'a'c'']2 [bd'][a'b'] | %638
 !>![^ad'=a'_b']2 !>![bd']!>![a'=b'] !>![c'd'a'c'']2 | %639
 !>![bd']!>![a'b'] !>![^ad'=a'_b']2 !>![bd']!>![a'=b'] |!ff! [a'c'']^b'!<(!=b'^a'=a'^g' | %641
 c''^b'=b'^a'=a'^g' | c''^b'=b'^a'=a'^g' | c''^b'=b'^a'=a'!<)!!fff!^g'!8va)! || %644
[K:F][Q:1/4=180]"^Mouv't du début" z2 z2 [^cfa]2- | [cfa]4 [=Beg]2- | [Beg]2 [A^cf]4 | %647
[K:treble]!fff! [A,^CFA]4 [DGB].[Fdf] | z2 [DGB].[Fdf] z2 | z2 [=f^g^c'=f']4- | [fgc'f']2 [^g=b]4 | %651
 [^G=Be^g]4 [fa].[ec'e'] | z2 [fa].[ec'e'] z2 | z2 [D^Fd]4- | [DFd]2 [C_Ec]2 [B,DB]2 | %655
[K:bass] [^C,^F,A,^C]4 D[A,^FA] | z2 [^C,^F,A,^C]2 [G,_B,D]2 | [E,A,=CE]4[K:treble] F.[C=Ac] | %658
[K:bass] z2 [E,A,CE]2 [B,_DF]2 ||[K:C][K:treble] [G,=C_EG]4!mf! ^G.[^D^Bd] | %660
 [^A,^D^F^A]4 B.[F^d^f] | [^FA^c][G_B=d][d^fa][A=ce][B_d=f][f=ac'] | %662
 [^B^d^^f][^ce^g][g^b^d'][d^f^a][e=g=b]!ff![bd'^f'] |!f! z2!ff! !arpeggio![cg_ac']3 [cgac'] | %664
!ff!!>(! [c^f_ac']4!f! .c2!>)! | z2!<(! !arpeggio![cg_ac']3!ff! [cgac']!<)! | [c^f_ac']4!f! .c2 | %667
[K:bass] z!mf! D,,!<(!_E,,G,,_A,,C, | _F,_E,G,_A,=B,C |[K:treble] _F_EDEG_A | %670
 [DG=B][_E_Ac][B=eg][F_Bd][_G_c_e][d=g_b] | [^G^c^e][Ad^f][^e^a^c'][=B=e^g][=c=f=a][gc'e'] | %672
!8va(! [dg=b][_e_ac'][b=e'g'][f_bd'][_g_c'_e']!<)![d'=g'_b']!8va)! | %673
!ff! z2!<(! !arpeggio![=e=bc'=e']3!fff! [ebc'e']!<)! |!>(! [e^a=c'e']4 e2!>)! | %675
!ff! z2!<(! !arpeggio![=e=bc'=e']3!fff! [ebc'e']!<)! |!fff!!>(! [e^a=c'e']4 e2!>)! | %677
[K:bass] z ^F,,G,,B,,C,E, | _A,^F,G,B,CE |[K:treble] _AG^DE^FG | %680
 [^D^GB][EAc][Be^g][^FBd][=Gc_e][d=g=b] | [Adf][_B_e_g][f_b=d'][cf_a][^c^f=a][^g^c'^e'] | %682
!8va(! [^d^gb][eac'][be'^g'][^fbd'][=gc'_e']!ff![d'=g'=b']!8va)! | %683
 z2!<(! !arpeggio![^gd'^e'^g']3!fff! [gd'e'g']!<)! |!>(! [^gd'=e'^g']4!mf! .g2!>)! | %685
!ff! z2!ff! (5:4:5[^g^g']/e'/^d'/g/[I:staff +1]e/(6:4:6^d/^G/[I:staff -1]g/e/d/!mf!G/ | %686
 z2!mf!!<(! [^GBe^g]3 .[GBeg] | z2 [Ad^fa]3 .[Adfa] | z2 [_B_eg_b]3 .[Begb] | %689
 z2 [=B=e^g=b]3 .[Begb] | z2 [cfac']3 .[cfac'] | z2 [^c^f^a^c']3!<)!!ff! .[cfac'] || %692
[K:D]!ff! z2 !arpeggio![dgbd']3 .[dgbd'] | (3d'bg (3dgb .d'2 | z2 !arpeggio![dgbd']3 .[dgbd'] | %695
 (3d'bg (3dgb .d'2 | z2 !arpeggio![Bdfb]3 .[Bdfb] | (3=bg^d (3Bdg .b2 | %698
 z2 !arpeggio![=cegb]3 .[^c^e^gb] | (3baf (3dfa .b2 | z2 !arpeggio![dfbd']3 .[dfbd'] | %701
 (7:4:7z DGBd[dg][dgb]!ff! [dgbd']2 | z2 !arpeggio![dgbd']3 .[dgbd'] | %703
!p! (7:4:7z DFBd[df][dfb]!ff! [dfbd']2 | z2 !arpeggio![Bdfb]3 .[Bdfb] | %705
 (7:4:7z B,^DGB[B^d][Bdg] [Bdgb]2 | z2 !arpeggio![=cegb]3 .[^c^e^gb] | %707
 (7:4:7z B,DFB[Bd][Bdf]!ff! [Bdfb]2 | z2 !arpeggio![Bdfb]3 .[Bdfb] | [dgbd']4 .[dgbd']2 | %710
!mf![Q:1/4=160]"^Un pe moins vif" =A3 ^A, =A2- | AG F3 C | %712
!ff![Q:1/4=200]"^au Mouvt" z2 !arpeggio![dgbd']3 .[dgbd'] | !>![dfbd']4 [dfbd']2 | %714
 z2 !>![Bdfb]3 [Bdfb] | !>![Bcgb]3 .[CF^Ac] .[CFAc]2 | !>![Bcgb]3 .[CF^Ac] .[CFAc]2 | %717
 !>![Bcgb]!>![Bcgb] .[Bcgb]2 .[CF^Ac]2 | !>![Bcgb]!>![Bcgb] .[Bcgb]2 .[CF^Ac]2 | %719
 !>![Bgb]2 .[^Ac]2 !>![c^ec']2 | .[Bd]2 !>![d=g_bd']2 .[de]2 || %721
[K:C]!ff! .[f_b_d'f'] x x x/[K:bass] x/ x2 |!fff! _C!>(!_B,A,_A,A,!>)!!mf![I:staff +1]D, | %723
[I:staff -1][K:treble]!mf! [A^ce]!<(![_Bdf][=B^d^f][=ceg][^c=e^g]!<)![=dfa] | %724
!ff! .[_b_d'f'] x x!<(! x/[K:bass] x/ x2!<)! |!fff! _C_B,A,_A,A,[I:staff +1]D, | %726
[I:staff -1][K:treble] [A^ce]!<(![_Bdf][=B^d^f][=ceg][^c=e^g]!<)![=dfa] | %727
!ff! .[_b_d'f']2 .f2 [_gbd'_g']2 | .[f_g]2 [=g_b_d'=g']2 .[fg]2 | %729
 [^g^c'=e'^g']!f! ^^F!<(!^G^AB^B!<)! |!fff! =d!>(!^c^B=BB^E!>)! | %731
 [=c=e=g]!<(![^c^e^g][d^fa][^d^^f^a][=egb][^e^^g^b]!<)! | %732
!ff! .[^g^c'=e'^g']!f! ^^F!<(!^G^AB^B!<)! |!fff! =d!>(!^c^B=BB!>)!^E | %734
 [=c=e=g][^c^e^g][d^fa][^d^^f^a][=egb][^e^^g^b] |!ff! [^g^c'e'^g']2 .g2 [=ac'e'=a']2 | %736
 .[^ga]2 [^a^c'e'^a']2 .[ga]2 | [=d'^g'^a'^c'']2 [d^g^c'd']3 .[dgc'd'] | %738
 (3z [^B=d]-[B-d-^g] [Bdb]2 [=eg]2 | z2 [d^g^c'd']3 .[dgc'd'] | (3z [^B=d]-[B-d-^g] [Bdb]2 [=eg]2 | %741
 (3z d-[d^g]- [dg^c'd']2 .[e^be']2 | (3z d-[d^g]- [dg^c'd']2 .[e^be']2 | %743
 (3z d-[d^g]- [dg^c'd']2 .[e^be']2 | (3z d-[d^g]- [dg^c'd']2!fff! .[e^be']2 | %745
 z2 ^g/^c'/d'/e'/ e'/d'/c'/g/ | ^g/^c'/d'/e'/ e'/d'/c'/g/ g/c'/d'/e'/ | %747
 e'/d'/^c'/^g/ g/c'/d'/e'/ e'/d'/c'/g/ | ^g/^c'/d'/e'/ e'/d'/c'/g/ g/c'/d'/e'/ | %749
!f!!<(! !///-![^g^c'd']3 e'3 | !///-![^g^c'd']3 e'3 | !///-![^g^c'd']3 e'3 | %752
 !///-![^g^c'd']3 e'3!<)! ||[K:D]!fff! [f^ad'f']2[K:bass] !>!_B,!>!^G,!>!B,!>!A, | !>!D,2 z2 z2 |] %755
V:2
!ppp!!ped!!8vb(! [E,,,F,,,]_A,,,[E,,,F,,,]A,,,[E,,,F,,,]A,,, | %1
 [E,,,F,,,]_A,,,[E,,,F,,,]A,,,[E,,,F,,,]A,,, | [E,,,F,,,]_A,,,[E,,,F,,,]A,,,[E,,,F,,,]A,,, | %3
 [E,,,F,,,]_A,,,[E,,,F,,,]A,,,[E,,,F,,,]A,,, | E,,,_A,,,F,,,A,,,F,,,A,,, | %5
 E,,,_A,,,F,,,A,,,F,,,A,,, | E,,,_A,,,F,,,A,,,F,,,A,,, | E,,,_A,,,F,,,A,,,F,,,A,,, | %8
 E,,,_A,,,F,,,A,,,F,,A,,, | E,,,_A,,,F,,,A,,,F,,A,,, | E,,,_A,,,F,,,A,,,F,,A,,,!ped-up! | %11
!ped! E,,,_A,,,F,,,A,,,F,,A,,,!ped-up! |!ped! E,,,_A,,,F,,,A,,,F,,A,,,!ped-up! | %13
!ped! E,,,_A,,,F,,,A,,,!ped-up!!ped!F,,A,,, | E,,,_A,,,!ped-up!!ped!F,,,A,,,F,,A,,,!ped-up! | %15
!ped! E,,,_A,,,F,,,A,,,F,,A,,,!ped-up! |!ped! E,,,_A,,,F,,,A,,,F,,A,,,!ped-up! | %17
!ped! E,,,_A,,,F,,,A,,,F,,A,,,!ped-up! |!ped! E,,,_A,,,F,,,A,,,F,,A,,,!ped-up! | %19
!ped! E,,,_A,,,F,,,A,,,F,,A,,,!ped-up! |!ped! E,,,_A,,,F,,,A,,,F,,A,,, | E,,,_A,,,F,,,A,,,F,,A,,, | %22
 E,,,_A,,,F,,,A,,,F,,A,,,!ped-up! |!ped! E,,,_A,,,F,,,A,,,F,,A,,,!ped-up! | %24
!ped! E,,,_A,,,F,,,A,,,F,,A,,,!ped-up! |!ped! E,,,_A,,,F,,,A,,,!ped-up!!ped!F,,A,,, | %26
 E,,,_A,,,!ped-up!!ped!F,,,A,,,F,,A,,,!ped-up! | E,,,_A,,,F,,,A,,,F,,A,,, | %28
 E,,,_A,,,F,,,A,,,F,,A,,, | E,,,_A,,,F,,,A,,,F,,A,,, |!ped! E,,,_A,,,F,,,A,,,F,,A,,,!ped-up! | %31
 E,,,_A,,,F,,,A,,,F,,A,,, | E,,,_A,,,F,,,A,,,F,,A,,, |!ped! E,,,F,,=F,,,F,,F,,,F,,!ped-up! | %34
!ped! E,,,F,,F,,,F,,F,,,F,,!ped-up! |!ped! E,,,E,,E,,,E,,^G,,,^G,,!ped-up! | %36
!ped! E,,,E,,E,,,E,,^A,,,^A,,!ped-up! | %37
!ped! (8:6:8E,,,A,,,^A,,,^C,,!8vb)!!ped-up!!ped![I:staff -1]E,,A,,^A,,^C,!ped-up! | %38
!p!!ped![I:staff +1] D,,,D,, !//-!^C,2 D,2!ped-up! |!mp!!ped! D,,D, !//-!^C,2 D,2!ped-up! | %40
!p!!ped! D,,,D,, !//-!^C,2 D,2!ped-up! |!mp!!ped! D,,D, !//-!^C,2 D,2!ped-up! | %42
!ped! E,,,E,, !//-!^D,2 E,2!ped-up! |!ped! E,,2 z2!ped-up!!ped! z2!ped-up! | %44
!ped! E,2 z2!ped-up!!ped! z2!ped-up! |!ped! !>![E,,,E,,]2 z2 z2!ped-up! | %46
!ped! (4:3:4E,,^F,,B,,D,!ped-up!!ped!!<(! z3!ped-up! |!ped! [E,,,E,,]2 z2 z2!<)!!ped-up! | %48
!ped!!>(! [E,,E,]2 z2!ped-up!!ped! z2!ped-up!!>)! |!p!!ped! E,,,2 E,,2!ped-up! [_B,D]2 | %50
!ped!!>(! E,,2 E,2!ped-up!!>)! [_B,D]2 |!ped!!<(! E,,,2 E,,2!ped-up! [_B,D]2!<)! | %52
!ped! E,,2 E,2!ped-up! [_B,D]2 |!pp!!ped! E,,,2 E,,2!ped-up! [_B,D]2 | %54
!ped! E,,2 E,2!ped-up! [_B,D]2 |!p!!ped!!>(! E,,,2 E,,2!ped-up! D,2!>)! | %56
!pp!!ped! !//-!E,,,3 E,,3!ped-up! |!ped! !//-!E,,3 E,3!ped-up! | %58
!ped!!<(! !//-!E,,,2 E,,2!ped-up!!p! (3F,,^F,,!<)!G,, |!ped! !//-!^G,,,3 ^G,,3!ped-up! | %60
!ped! !//-!^G,,,3 ^G,,3!ped-up! |!p!!ped! !//-!^G,,,3 D,,3!ped-up! | %62
!pp! !//-!^G,,, D,,!ped! !//-!G,,,2 _B,,,2 | !//-!^G,,,3 _B,,,3 | !//-!^G,,,3 _B,,,3!ped-up! || %65
[K:D]!pp!!ped! x2 z2 z2!ped-up! |!ped! x2 x2 z2!ped-up! | %67
!pp!!ped! (8:6:8A,,,_B,,,C,,D,,F,,D,,B,,,A,,,!ped-up! | %68
!ped!!pp! (8:6:8D,,!<(!^G,,A,,D,F,D,!ped-up!!ped!A,,!<)!G,, | %69
 (8:6:8A,,,!>(!_B,,,C,,D,,A,,D,,C,,!ped-up!B,,,!>)! |!ped! (8:6:8D,,^G,,A,,D,F,D,!ped-up!A,,G,, | %71
!ped! (8:6:8A,,,_B,,,C,,D,,A,,D,,C,,B,,,!ped-up! | (8:6:8D,,^G,,A,,!ped!D,F,D,A,,G,, | %73
 (8:6:8A,,,_B,,,C,,!ped-up!!ped!D,,A,,D,,C,,B,,,!ped-up! | %74
!ped!!<(! (8:6:8E,,^G,,A,,C,=G,!<)!C,!ped-up!A,,G,, | %75
 (8:6:8A,,,^D,,E,,!ped!=G,,A,,G,,E,,D,,!ped-up! |!<(!!ped! x2!<)! z2!>(! z2!ped-up!!>)! | %77
!ped! A,,,2 .[C,,G,,]2 z2!ped-up! |!ped!!pp! (8:6:8E,,^A,,B,,D,G,D,!ped-up!!ped!B,,A,, | %79
 (8:6:8A,,,^D,,E,,G,,A,,G,,E,,!ped-up!D,, |!ped! (8:6:8E,,^A,,B,,D,G,D,!ped-up!B,,A,, | %81
!ped! (8:6:8A,,,^D,,E,,G,,A,,G,,E,,D,,!ped-up! | (8:6:8E,,^A,,B,,!ped!D,G,D,B,,A,, | %83
 (8:6:8A,,,^D,,E,,!ped-up!!ped!G,,A,,G,,E,,D,,!ped-up! |!ped! (8:6:8=D,,F,,A,,B,,D,F,!ped-up!A,B, | %85
!ped! (4:3:4D,F,A,B, z3!ped-up! |!ped! x6!ped-up! |!<(!!ped! A,,,2!<)! D,,2 z2!ped-up! | %88
!ped! (8:6:8D,,^G,,!<(!A,,D,!p!F,D,A,,!<)!G,,!ped-up! | %89
!ped! (8:6:8A,,,!>(!_B,,,C,,D,,!pp!A,,D,,C,,!ped-up!!>)!B,,, | %90
!ped!!<(! (8:6:8D,,^G,,A,,D,!p!F,D,!ped-up!A,,!<)!G,, | %91
!ped! (8:6:8A,,,!>(!_B,,,C,,D,,A,,!pp!D,,C,,B,,,!ped-up!!>)! | (8:6:8D,,^G,,A,,!ped!D,F,D,A,,G,, | %93
 (8:6:8A,,,_B,,,C,,!ped-up!!ped!D,,A,,D,,C,,B,,,!ped-up! | %94
!ped! (8:6:8E,,A,,C,E,!p!F,E,!ped-up!C,A,, | (3E,,A,,C,!ped! z4!ped-up! | %96
!pp!!ped! (8:6:8G,,,!<(!E,,A,,C,!p!^E,[I:staff -1]F,A,C!ped-up!!<)! | %97
!pp!!ped![I:staff +1] E,,2 [C,F,A,]2!ped-up! z2 |!ped! (8:6:8E,,E,^D,E,D,E,D,E,!ped-up! | %99
!ped! (8:6:8E,,E,^D,E,D,E,D,E,!ped-up! |!ped! (8:6:8E,,E,^D,E,D,E,D,E,!ped-up! | %101
!ped! (8:6:8E,,E,^D,E,D,E,D,E,!ped-up! |!ped!!>(! (8:6:8E,,E,^D,E,D,E,D,E,!ped-up!!>)! | %103
 (8:6:8E,,E,^D,E,D,E,D,E, |!mf!!ped!!>(! [A,,,A,,]2[K:treble] x2 x2!ped-up!!>)! | %105
[K:bass]!ped! [B,EG]3!ped-up!!ped! [^A,^DF]3!ped-up! | %106
!ped! [E,,E,]2 [G,B,]2!ped-up!!ped! z2!ped-up! |!ped! [A,,,A,,]2 z2 z2!ped-up! | %108
!p!!ped! [E,,E,]2 z2 z2!ped-up! |!ped! [A,,,A,,]2 z2 z2!ped-up! |!ped! [D,,D,]2 z2!ped-up! z2 | %111
!p!!ped! [A,,,A,,]2 z2 z2!ped-up! |!p!!ped! [D,,D,]2"^cresc." [F,D]2"^poco" z2!ped-up! | %113
"^a"!ped! [A,,,A,,]2"^poco" [F,B,]2 z2!ped-up! | %114
!ped! [^D,,^D,]2!mp! (3A,C[I:staff -1]F (3Ac-[cf]-!ped-up! | %115
 [cf]2!ped![I:staff +1] !arpeggio![A,C]2 z2!ped-up! | [E,,E,]2!ped! (3A,CG z2!ped-up! | %117
 [A,,,A,,]2!ped! !arpeggio![A,C]2 z2!ped-up! | [^E,,^E,]2!ped! (3A,C^G z2!ped-up! | %119
 [A,,,A,,]2!ped! (3A,C^E z2!ped-up! | [F,,F,]2!ped! !arpeggio![A,C]2 z2!ped-up! | %121
!ped!!mf! [A,,,A,,]2 E2!ped-up!!ped! ^D2!ped-up! |!ped! [A,,A,]2 [F,=C]2!ped-up!!ped! z2!ped-up! | %123
!ped! [D,,D,]2 F,2 z2!ped-up! |!ped! [A,,A,]2 =C2!ped-up! z2 |!ped! [D,,D,]2 [=CE]2!ped-up! z2 | %126
!ped! [G,,G,]2 z2!ped-up! z2 |!mp!!ped! [D,,D,]2 [B,E]2 z2!ped-up! | %128
!mf!!ped! [G,,G,]2 [B,E]2 z2!ped-up! |!ped! [D,,D,]2!<(! (3D,G,B,!ff! D2!ped-up!!<)! | %130
!>(!!ped! [E,,,E,,]2!mf! (3D,G,B,!>)! D2!ped-up! | %131
!f!!ped!!<(! [E,,E,]2 (3D,G,B,!ff! D2!ped-up!!<)! |!ped! [A,,,A,,]2!mf! (3D,G,B, D2!ped-up! | %133
!mp!!ped!!<(! [A,,,A,,]2 C,2 D,2!ped-up! |!ped! [^D,,^D,]2 [E,,E,]2 [^E,,^E,]2!ped-up! | %135
!ped! [F,,F,]2 [G,,G,]2 [^G,,^G,]2!ped-up! |!ped! [A,,A,]2 [^A,,^A,]2!<)!!ped-up! [B,,B,]2 | %137
!ff! [D,,D,]2 [F,B,D]2 [F,B,D]2 | [E,,,E,,]2 [G,B,D]2 [G,B,D]2 | [E,,E,]2 [G,B,D]2 [G,B,D]2 | %140
 [A,,,A,,]2 [F,B,D]2 [F,B,D]2 | [A,,,A,,]2 [F,B,D]2 [F,B,D]2 | [A,,,A,,]3 .[C,F,^A,] .[C,F,A,]2 | %143
 [A,,,A,,]3 .[C,F,^A,] .[C,F,A,]2 | [A,,,A,,]3 !>![A,,,A,,]!>![A,,,A,,]!>![A,,,A,,] | %145
 !>![D,,D,]2 z2 z2 |!pp!!<(!!ped! _E,^A,!<)!!p!C!>(!G!pp!CA,!ped-up!!>)! | %147
!<(!!ped! =A,,B,!p!C!<)!G!pp!!>(!CB,!ped-up!!>)! |"_simile"!ped! D,^G,!p!^A,zA,!pp!=G,!ped-up! | %149
!ped! =A,,=A,!p!B,F!pp!B,A,!ped-up! |!ped! C,=F,!p!G,zG,!pp!^F,!ped-up! | %151
!ped! A,,^F,!p!G,^B,!pp!G,F,!ped-up! |!ped!!<(! D,,A,,B,,!p!D,^E,!ped-up!F, | %153
!ped! ^G,A,!<)!CD!ped-up! z2 |!pp!!<(!!ped! _E,^A,!<)!!p!C!>(!G!pp!C!>)!A,!ped-up! | %155
"_simile"!ped! =A,,B,!p!CG!pp!C!ped-up!B, |!ped! D,^G,!p!^A,zA,!pp!G,!ped-up! | %157
!ped! =A,,=A,!p!B,F!pp!B,!ped-up!A, |!ped!!p! F,2 C2!ped-up!!ped! z2!ped-up! | %159
!ped! C,2 C2 z2!ped-up! |!ped!!mf! [F,,F,]2 C2!ped-up! z2 |!p! .[C,,C,]2 .[F,,,F,,]2 z2 | %162
!ped! _E,^A,CGC=A,!ped-up! |!ped!!>(! =A,,B,CGC!ped-up!B,!>)! |!ped! D,^G,^A,^EA,G,!ped-up! | %165
!ped!!>(! =A,,=A,B,FB,!ped-up!A,!>)! |!ped! C,G,B,FB,G,!ped-up! | %167
!ped! A,,G,!ped-up!^B,!>(!FCG,!>)! |!ped!!<(! D,,A,,B,,D,^E,F,!ped-up! | %169
!ped! ^G,A,!<)!CD!ped-up! z2 |!<(!!ped! _E,^A,CGC!<)!=A,!ped-up! | %171
!>(!!ped! =A,,B,CGC!>)!!ped-up!B, |!<(!!ped! D,^G,^A,^EA,!<)!G,!ped-up! | %173
!>(!!ped! =A,,=A,B,FB,!>)!!ped-up!A, |!ped! B,,2 [F,D]2!ped-up!!ped! z2!ped-up! | %175
!ped! F,,2 [F,D]2 z2!ped-up! |!ped!!>(! B,,2 [F,D]2!ped-up! z2 | .[F,,F,]2!>)! .[B,,,B,,]2 z2 || %178
[K:C]!ped!!p! B,,2 ^E2!ped-up! ^F2 |!ped! [E,,E,]2!ped-up! G2 ^G2 | %180
!ped! A,,E,A,C!ped-up![K:treble]!ped!EA | Bc!ped-up!!ped! z2 z2!ped-up! | %182
[K:bass]!ped! A,,2 ^D2!ped-up! E2 |!ped! [D,,D,]2!ped-up! F2 ^F2 | %184
!ped! G,,D,G,_B,!ped-up![K:treble]!ped!DG | A_B!ped-up!!ped! z2 z2!ped-up! | %186
[K:bass]!ped! G,,2 ^C2!ped-up! D2 |!ped! G,,2!ped-up! _E2 =E2 | %188
!mf!!ped! _A,,!>(!=E,F,!mp!_A,!ped-up!CF!>)! |!p!!ped! z2 !arpeggio![_E_A]4!ped-up! | %190
 _B,,2!ped! [=E_A]4!ped-up! | _B,,2!ped! [=E_A]4!ped-up! | _B,,2!ped! [_A_B]4!ped-up! | %193
!ped! _E,,_B,,_E,G,_B,_E!ped-up! |!p!!ped! C,,2 [G,-_E]2 [G,D]2!ped-up! | %195
!ped! z2!ped-up! .[^G,^CD]2 .B,2 |!ped! A,,,A,,E,A,!ped-up![K:treble]=CE | %197
!mp!!ped! Ac z2 z2!ped-up! |[K:bass]!ped! [A,,,A,,]2 [E,-C]2 [E,B,]2!ped-up! | %199
!ped! z2!ped-up! .[^E,^A,B,]2 .^G,2 |!ped! ^D,,,^F,,^C,^F,!ped-up!!<(!A,^C | %201
[K:treble]!mp!!ped! ^FA!<)! z2 z2!ped-up! || %202
[K:D][K:bass]!ped! !>!F,,2 [^B,,A,^B,]2!ped-up! [C,C]2 |!ped! F,,2!ped-up! [D,=CD]2 [^D,^D]2 | %204
!f!!ped! G,,!>(!^D,!mf!E,G,!ped-up!!mp!B,!>)!E |!p!!ped! z2 !arpeggio![DG]4!ped-up! | %206
 A,,2!ped! [^D=G]4!ped-up! | A,,2!ped! [^DG]4!ped-up! | A,,2!ped! [GA]4!ped-up! | %209
!pp!!ped! z A,D[I:staff -1]Afd'!ped-up! || %210
[K:Bb]!ff!!8vb(!!ped![I:staff +1] [A,,,,B,,,,]2!8vb)! [B,,=E,B,][B,,E,B,]!ped-up! .[B,,E,B,]2 | %211
!ped! [B,,F,B,][B,,F,B,]!ped-up! .[B,,F,B,]2!ped! [B,,^F,B,][B,,F,B,]!ped-up! | %212
 .[B,,^F,B,]2 .[B,,G,B,]2 .[B,,_A,B,]2 |!ped! z!<(! ^F,,G,,=B,,C,E,!ped-up! | %214
!fff!!ped! ^F,G,=B,CDE!ped-up! |[K:treble]!ped! ^FG=B!<)!c z2!ped-up! | %216
[K:bass]!ff!!8vb(!!ped! z2!8vb)! !>![B,EG]4 | !>![B,EG]4 !>![B,EG]2!ped-up! | %218
!ped! [F,,,F,,]2 [B,EG][B,EG]!ped-up! .[B,EG]2 | [A,D^F][A,DF] .[A,DF]2 [G,CE][G,CE] | %220
 .[G,CE]2 .[^G,=B,_E]2 .[G,CE]2 |[K:treble]!ped! [D^FA]3 [=B,_EF]!ped-up! [DFA]2 | %222
[K:bass]!ped! [_B,,,_B,,]2 [=F,B,D]2 [F,B,D]2!ped-up! | %223
!ped! [B,,,B,,]2 [=E,A,^C]2!p! [E,A,C]2!ped-up! |!p!!ped! z2 [^F,B,]4 | [=F,B,]4 [F,B,]2!ped-up! | %226
!8vb(! [A,,,,B,,,,]2!8vb)! [B,,=E,B,][B,,E,B,] .[B,,E,B,]2 | %227
 [B,,F,B,][B,,F,B,] .[B,,F,B,]2 [B,,^F,B,][B,,F,B,] | .[B,,^F,B,]2 .[B,,G,B,]2 .[B,,_A,B,]2 | %229
!ped! z ^F,,G,,=B,,C,E,!ped-up! |!ped! ^F,G,=B,CDE!ped-up! |[K:treble]!ped! ^FG=Bc z2!ped-up! | %232
[K:bass]!8vb(!!ped! z2!8vb)! [B,D=EB]4 | [B,D=EB]4 [B,DEB]2!ped-up! | %234
!f!!ped! z2 [=E,B,]2 [E,B,]2!ped-up! |!ped! z2 [F,=B,]2 [F,B,]2!ped-up! | %236
!ped! z2 [_A,_B,F]2 [A,B,F]2!ped-up! |!ped! z2 [G,=B,EG]2 [G,B,EG]2!ped-up! | %238
!ped! z2 [_B,DG]2 [B,DG]2!ped-up! |!ped! z2 [G,=B,E]2 [G,B,E]2!ped-up! | %240
!ff!!ped! !>![F,,,F,,]!>![F,,,F,,] !>![F,,,F,,]2 !>![F,,,F,,]2!ped-up! | [B,,,B,,]2 .B,,2 z2 || %242
[K:Eb]!pp!!ped! D,E,=E,F,^F,G,!ped-up! |!ped! A,G,^F,=F,=E,_E,!ped-up! | %244
!ped! D,E,=E,F,^F,G,!ped-up! |!ped! A,G,^F,_F,=E,_E,!ped-up! |!ped! D,E,=E,F,^F,G,!ped-up! | %247
!ped! A,G,^F,_F,=E,_E,!ped-up! |!ped! D,E,=E,F,^F,G,!ped-up! |!ped! A,G,A,=B,CE!ped-up! | %250
!ped! =A,B,=B,C^CD!ped-up! |!ped! ED^C=C=B,_B,!ped-up! |!ped! =A,B,=B,C^CD!ped-up! | %253
!ped! ED^C=C=B,_B,!ped-up! |!ped! A,B,=B,C^CD!ped-up! |!ped! !>!F,,,2 !>!E,2 !>!G,2!ped-up! | %256
!ped! !arpeggio!!>![B,,,F,,B,,]2!ped-up! !>![F,B,]2 !>![B,D]2 | !>!F,,2 !>![F,B,]2 !>![B,D]2 | %258
!ped! D,E,=E,F,^F,G,!ped-up! |!ped! A,G,^F,=F,=E,_E,!ped-up! |!ped! D,E,=E,F,^F,G,!ped-up! | %261
!ped! A,G,^F,_F,=E,_E,!ped-up! |!ped! D,E,=E,F,^F,G,!ped-up! |!ped! A,G,^F,_F,=E,_E,!ped-up! | %264
!ped! D,E,=E,F,^F,G,!ped-up! |!ped! A,G,A,=B,CE!ped-up! |!ped! =A,B,=B,C^CD!ped-up! | %267
!ped! ED^C=C=B,_B,!ped-up! |!ped! =A,B,=B,C^CD!ped-up! |!ped! ED^C=C=B,_B,!ped-up! | %270
!ped! A,B,=B,C^CD!ped-up! |!ped! !arpeggio!!>![B,,,F,,B,,]2 !>!.C,2 !>!._A,2!ped-up! | %272
 !>![E,,B,,]2 !>!.G,2 !>!.C2 | z6 ||[K:F]!ped! C,2!ped-up! .B,2 .B,2 | %275
!ped! C,2 .=B,2!ped-up! .B,2 |!ped! [F,,C,]2 !arpeggio![A,C]2!ped-up! [C,,C,]2 | %277
!ped! [F,,C,]2 !arpeggio![A,C]2 [C,,C,]2!ped-up! |!ped! z2 F4-!ped-up! |!ped! F2 E4!ped-up! | %280
!ped! =B,4!ped-up! C2 |!ped! z2 [F,_B,]2 [F,B,]2!ped-up! |!ped! C,2 B,2 B,2!ped-up! | %283
!ped! C,2 =B,2!ped-up! B,2 |!ped! [F,,C,]2 [A,C]2!ped-up! [C,,C,]2 | %285
!ped! [F,,C,]2 [A,C]2!ped-up! [C,,C,]2 |!ped! z2 ^D4!ped-up! |!ped! z2 E4!ped-up! | %288
!ped! z2 [A,CF]2 ^F2!ped-up! |!ped! G,,2 !arpeggio![D,G,=B,D]2 z2!ped-up! || %290
!ff!!ped! [G,,,G,,]3 .[G,B,^C_E] .[G,B,CE]2!ped-up! |!ped! C,,!<(!^C,D,^D,E,G,!ped-up! | %292
!ped! F,,F,E,!ff!=D,D,^G,,!ped-up! |!ped! =B,,D,=C,A,,E,,!<)!D,,!ped-up! | %294
!ped! [G,,,G,,]3 .[G,B,^C_E] .[G,B,CE]2!ped-up! |!f!!ped! C,,=B,,!<(!C,^C,D,E,!ped-up! | %296
!ped! F,,!ff!F,^G,A,!<)! E2!ped-up! |!p!!ped! [A,,A,]2 [F,,F,]2 [_D,,_D,]2!ped-up! | %298
!ped! [G,,,G,,]3 .[G,B,^C_E] .[G,B,CE]2!ped-up! |!f!!ped! C,,!<(!^C,D,^D,E,G,!ped-up! | %300
!ped! !>!F,,F,E,=D,D,^G,,!ped-up! |!ped! =B,,D,=C,A,,E,,!<)!D,,!ped-up! | %302
!ped! [G,,,G,,]3 .[G,B,^C_E] .[G,B,CE]2!ped-up! |!f!!ped! C,,!<(!=B,,C,^C,D,E,!ped-up! | %304
!ped! !>!F,,F,^G,A,!<)! .F2!ped-up! | %305
!ped! (3[_D,,_D,][I:staff -1][A,=B,][EFA][I:staff +1] (3[C,,C,][I:staff -1][A,B,][EFA][I:staff +1] [F,,,F,,]2!ped-up! | %306
!ped! [A,A]3 [A,,A,]!ped-up! [A,,A,]2 |[K:treble]!p!!ped! z2 [^GA_B]4!ped-up! | %308
!ped! z2 [=GA=B]2 [FA=c]2!ped-up! |!ped! z2 [F^GA^c]2 [FGAd]2!ped-up! | %310
[K:bass]!ped! [A,A]3 [A,,A,] [A,,A,]2!ped-up! |[K:treble]!p!!ped! z2 [^GA_B]4!ped-up! | %312
!ped! z2 [=GA=B]2 [=F^G=B^c]2!ped-up! |[K:bass]!p!!ped! .[D,,D,]2 .[B,,,B,,]2 .[F,,,F,,]2!ped-up! | %314
!ped! [A,A]3 [A,,A,] [A,,A,]2!ped-up! |[K:treble]!p!!ped! z2 [^GA_B]4!ped-up! | %316
!ped! z2 [=GA=B]2 [FA=c]2!ped-up! |!ped! z2 [F^GA^c]2 [FGAd]2!ped-up! | %318
[K:bass]!ped! [A,A]3 [A,,A,] [A,,A,]2!ped-up! |[K:treble] .A,2 .A2 z2 | a3 A A2 |!mf! A,2 z2 z2 | %322
!f! a3 A A2 |[K:bass]!p! .A,,2 .A,2 z2 | A3 A, A,2 |!p! .A,,2 .A,2 z2 | A,3 A,,!<(! A,,2!<)! | %327
 .A,,,2 z2!mf! .A,,2 |!>(!!ped! (9:6:9=B,,,C,,^C,,D,,_E,,=E,,!ped-up!F,,^F,,G,, | %329
 (9:6:9^G,,A,,B,,=B,,C,!>)!^C,D,^D,E, ||[K:D] D,,2 =A,,2 z2 | =A,,,2 =A,,2 z2 | E,,2 =A,,2 z2 | %333
 A,,,2 =A,,2 z2 |"^cresc." C,,2 C,2 z2 | A,,,2 A,,2 z2 | D,,2 A,,2 z2 | A,,,2 A,,2 z2 | %338
 [B,,,B,,]2 C2 z2 | [B,,,B,,]2 =C2 z2 | E,,2 .[G,B,]2 z2 | B,,,2 .[D,E,]2 .[D,E,]2 | %342
 E,,2 .[=G,B,]2 z2 | B,,,2 .[D,E,]2 .[D,E,]2 | A,,,2 A,,2 z2 |!ped! A,,2 A,2!ped-up! z2 || %346
[K:F]!ped! F,,2 =C,2!ped-up! =C2 |!ped! =C,,2 C,2!ped-up! C2 |!ped! G,,2 =C,2!ped-up! =C2 | %349
!ped! =C,,2 C,2!ped-up!!p!!<(! C2 |!ped! E,,2 C,2!ped-up! C2 |!ped! C,,2 C,2!ped-up! C2 | %352
!ped! F,,2 C,2!ped-up! C2 |!ped! C,,2!<)! C,2!ped-up! C2 |!ped! [D,,D,]2 A,2-!ped-up! [A,DFA]2 | %355
!ped! [D,,D,]2 A,2-!ped-up! [A,DFA]2 |!ped! [G,,,G,,]2 B,2-!ped-up! [B,DF]2 | %357
!ped! [G,,,G,,]2 [B,-D-F]2!ped-up!!f! [B,D^F]2 |!ped! [C,,C,]2 [B,-D^F]2!ped-up! [B,_EG]2 | %359
!ped! [C,,C,]2 [B,_EG]2!ped-up! [=B,=E^G]2 |!ped! [F,,F,]2 [=B,E^G]2!ped-up! [CFA]2 | %361
!ped! [F,,F,]2[K:treble] [CF]2-!ped-up! [CFAc]2 ||[K:D][K:bass]!ped! z2 [F,=CF]2!ped-up! [F,CF]2 | %363
!ped! z2 [F,DF]2!ped-up! [F,DF]2 |!ped! z2 [G,_B,D]2!ped-up! [G,B,D]2 | %365
!ped! z2 [G,_B,D]2!ped-up! [G,B,D]2 |!ff!!ped! [A,,,A,,]2 [F,=B,D]2!ped-up! [F,B,D]2 | %367
!ped! [A,,,A,,]2 [G,B,^D]2!ped-up! [G,B,D]2 |!ped! [A,,,A,,]2 [G,=CE]2!ped-up! [A,^CF]2 | %369
!ped! [D,,D,]2 [F,A,D]2!ped-up! z2 ||[K:Bb]!p!!ped! (5:3:5^F,,B,,D,^F,B,(5:3:5DB,!ped-up!F,D,B,, | %371
!ped! (5:3:5^F,,B,,D,^F,B,(5:3:5DB,F,D,B,,!ped-up! | C,,2 .G,2 .[EG]2 | C,,2 .G,2 .[EG]2 | %374
!ped! (5:3:5=F,,^C,=E,^F,^A,(5:3:5=EA,F,E,C,!ped-up! | %375
!ped! (5:3:5=F,,^C,=E,^F,^A,(5:3:5=EA,F,E,C,!ped-up! | _B,,,2 .=F,2 .[DF]2 | F,,,2 .F,2 .[DF]2 | %378
!mf!!ped! (5:3:5G,,=B,,!<(!_E,G,=B,(5:3:5EB,G,E,B,,!ped-up! | %379
!ped! (5:3:5G,,=B,,_E,G,=B,(5:3:5EB,G,E,!<)!B,,!ped-up! | C,,2 .E,2 .[G,=B,E]2 | %381
 C,,2!mf! .E,2 .[G,=B,E]2 |!ped! z2 F,4!ped-up! |!mf!!ped!!<(! [B,,,B,,]2 F,2 B,2!ped-up! | %384
!ped! [B,,,B,,]2 F,2!<)! [A,D]2!ped-up! | [B,,,B,,]2!mf! .[B,D]2 z2 || %386
[K:Db]!ped! z2 [DF=A]2 z2!ped-up! |!ped! z2 [DF=A]2 z2!ped-up! |!ped! E,,2 B,2 [EGB]2!ped-up! | %389
!ped! E,,2 B,2 [EGB]2!ped-up! |!ped! z2 [=A,_D=G]2 z2!ped-up! |!ped! z2 [=A,_D=G]2 z2!ped-up! | %392
!ped! D,,2 _A,2 [DFA]2!ped-up! |!ped! A,,,2 A,2 [DFA]2!ped-up! |!ped! z2 [A,=D]2 z2!ped-up! | %395
!mp!!ped! z2 [A,=D]2 z2!ped-up! |!ped! z2 (3F,_B,=D =B,2!ped-up! |!ped! z2 [_B,=E]4!ped-up! || %398
[K:C]!ped! z2 (3G,=CE ^C2!ped-up! |!ped! [D,,D,]4 [^A,,^A,]2!ped-up! | %400
!ped! [^F,,^F,]4 [=D,=D]2!ped-up! |!ped! [^A,,^A,]2 [B,,B,]2 [=C,=C]2!ped-up! | %402
!ped! [^C,^C]2 [D,D]2 [^D,^D]2!ped-up! || %403
[K:A][K:treble]!ff!!ped! E/!>(!=F/E/F/E/F/E/!>)!F/!p!E/F/E/F/!ped-up! | %404
!p!!ped! e/=f/e/f/e/f/e/f/e/f/e/f/!ped-up! |!ped! E/=F/E/F/E/F/E/F/E/F/E/F/!ped-up! | %406
!ped! e/=f/e/f/e/f/e/f/e/f/e/f/!ped-up! |!ped! E/=F/E/F/E/F/!p!E/F/E/F/E/F/!ped-up! | %408
!ped! e/=f/e/!p!f/e/f/e/f/e/f/e/f/!ped-up! |!ped! E/=F/E/F/E/F/E/F/ E z!ped-up! | %410
[K:bass]!p!!ped! F,,/C,/!<(!E,/^A,/[K:treble][I:staff -1]E/G/^A/c/e/g/!ped-up!^a/c'/!<)! | %411
!ped![I:staff +1] E/=G/.E z2 z2!ped-up! | %412
[K:bass]!f!!ped!!>(! (7:6:7E,,/B,,/E,/G,/[K:treble][I:staff -1][DE]/F/G/B/[I:staff +1][I:staff -1] [de]/f/g/b/!mp!e'/!ped-up! | %413
!mp!!ped![I:staff +1] E/F/E/F/E/F/!>)!!p!E/F/E/F/E/F/ |!ped-up! %414
!ped! e/f/e/f/e/f/e/f/e/f/e/f/!ped-up! |!ped! E/F/E/F/E/F/E/F/E/F/E/F/!ped-up! | %416
!ped! e/f/e/f/e/f/e/f/e/f/e/f/!ped-up! |!ped! E/F/E/F/E/F/!p!E/F/E/F/E/F/!ped-up! | %418
!ped! e/f/e/f/!p!e/f/e/f/e/f/e/f/!ped-up! |!ped! E/F/E/F/E/F/E/F/E/F/E/F/!ped-up! | %420
[K:bass]!ped! A,,/E,/F,/A,/[K:treble][I:staff -1]E/F/A/c/e/f/a/!f!c'/!ped-up! | %421
!ped![I:staff +1] E/F/.E z2 z2!ped-up! ||[K:C][K:bass]!ped! x6!ped-up! | %423
[K:treble]!ped! E/!p!F/E/F/E/F/E/F/E/F/E/F/ |!ped-up!!p!!ped! e/f/e/f/e/f/e/f/e/f/e/f/!ped-up! | %425
!mf!!ped! E/!mp!F/E/F/E/F/E/F/E/F/E/F/!ped-up! | %426
[K:bass]!f!!ped! [^C,=G,B,]2[K:treble]!mp! E/F/E/F/E/F/E/F/!ped-up! | %427
!mf!!ped! E/!mp!F/E/F/E/!p!F/E/F/E/F/E/F/!ped-up! | %428
[K:bass]!mf!!ped!!<(! [=G,,F,B,]2[K:treble]!p! E/F/E/F/E/F/E/F/!ped-up! | %429
!mf!!ped! E/!mp!F/E/F/E/F/E/F/E/F/E/!<)!F/!ped-up! | %430
[K:bass]!f!!ped! [^C,,=G,,B,,]2[K:treble]!mp! E/F/E/F/E/F/E/F/!ped-up! | %431
!ped!!<(! E/F/E/F/E/F/E/F/ z2!ped-up! |[K:bass]!ped! !arpeggio![G,,,F,,B,,]2 z2!ped-up! z2 | %433
!ped! !arpeggio![^C,,B,,F,]2 z2 z2!ped-up! |!ped! !arpeggio![G,,F,B,]2 z2 z2!ped-up! | %435
!ped! !arpeggio![^C,B,F]2 z2 z2!ped-up! |[K:treble]!ped! E/F/E/F/E/F/E/F/E/F/E/F/!ped-up! | %437
!ped! e/f/e/f/e/f/e/f/e/f/e/!<)!f/!ped-up! |!ped! [Ge]/f/ z z2 x2!ped-up! | %439
!ped! x2[K:bass] x2 x2!ped-up! |!pp!!ped!!8vb(! E,,,_A,,,.F,,,A,,,F,,,A,,,!ped-up! | %441
!ped! E,,,_A,,,.F,,,A,,,.F,,!ped-up!A,,, |!ped! E,,,_A,,,.F,,,A,,,.F,,!ped-up!A,,, | %443
!ped! E,,,_A,,,.F,,,A,,,!ped-up!!ped!.F,,!ped-up!A,,, | E,,,_A,,,!ped-up!!ped!.F,,,A,,,.F,,A,,, | %445
!ped! E,,,_A,,,.F,,,A,,,.F,,A,,,!ped-up! |!ped! E,,,_A,,,.F,,,A,,,.F,,!ped-up!A,,, | %447
 E,,,_A,,,.F,,,A,,,.F,,A,,, |!ped! E,,,_A,,,.F,,,A,,,.F,,!ped-up!A,,, | %449
!ped! E,,,_A,,,.F,,,A,,,.F,,!ped-up!A,,, |!ped! E,,,_A,,,.F,,,A,,,.F,,A,,,!ped-up! | %451
!ped! E,,,_A,,,.F,,,A,,,.F,,!ped-up!A,,, |!ped! E,,,_A,,,.F,,,A,,,.F,,A,,,!ped-up! | %453
!ped! E,,,_A,,,.F,,,A,,,.F,,!ped-up!A,,, |!ped! E,,,_A,,,.F,,,A,,,.F,,A,,,!ped-up! | %455
!ped! E,,,_A,,,.F,,,A,,,.F,,!ped-up!A,,, | %456
!mf!!ped! (8:6:8=E,,,_A,,,=E,,!8vb)!F,,_A,,C,[I:staff -1]E,F,-!ped-up! | %457
!p!!ped![I:staff +1] _D,,,_D,,!pp!!ped-up!!ped! !//-!C,2 _D,2!ped-up! | %458
!p!!ped! _D,,!>(!_D,!pp! !//-!C,2 D,2!ped-up!!>)! |!p!!ped! _D,,,_D,,!pp! !//-!C,2 _D,2!ped-up! | %460
!p!!ped! _D,,_D,!pp! !//-!C,2!ped-up! D,2 |!p!!ped! _D,,,_D,,!pp! !//-!C,2 _D,2!ped-up! | %462
!p!!ped! _D,,_D,!pp! !//-!C,2!ped-up! D,2 |!p!!ped! _D,,_D,!pp! !//-!C,2 D,2!ped-up! | %464
!p!!ped! _D,,_D,!pp! !//-!C,2!ped-up! D,2 | %465
!p!!ped! _E,,,_E,,!p! D,/_E,/D,/E,/D,/E,/D,/E,/!ped-up! |!p!!<(!!ped! _E,,2 z2!<)! z2!ped-up! | %467
!ped! _E,2 z2 z2!ped-up! |!ped! [_E,,,_E,,]2 z2 z2!ped-up! |!ped! (4:3:4_E,,F,,A,,_D, z3 |!ped-up! %470
!ped! [_E,,,_E,,]2 z2 z2!ped-up! |!ped! ^D,,,2 ^D,,2!<(! [A,^C]2!ped-up!!<)! || %472
[K:A]!>(!!ped! ^D,,2 ^D,2!>)!!mf! [A,C]2!ped-up! |!ped! ^D,,,2 ^D,,2 [A,C]2!ped-up! | %474
!ped! ^D,,2 ^D,2 [A,C]2!ped-up! |!ped! ^D,,,2 ^D,,2 A,2!ped-up! |!ped!!>(! ^D,,2 ^D,2 A,2!ped-up! | %477
!ped! ^D,,,2 ^D,,2 C,2!ped-up! |!ped! ^D,,2 ^D,2!>)! z2!ped-up! |!p! E,,E,=F,,E,^F,,E, | %480
 =G,,E,^G,,E,A,,E, | ^A,,E,B,,E,^B,,E, | C,E,D,E,^D,E, |!ff! =G,,,!>(!F,,,G,,,F,,,=F,,,E,,,!>)! | %484
!<(! z2 [^A,,^^C,^E,]2 [B,,^D,F,]2 | [=C,=E,=G,]2 [^C,^E,^G,]2 [D,F,A,]2 | %486
 [^D,^^F,^A,]2 [E,G,B,]2 [^E,^^G,^B,]2 | [F,^A,C]2 [=G,B,D]2!<)! [^G,^B,^D]2 | %488
!f! z2 [^A,^^C^E]2 [B,^DF]2 |[K:treble] [=CE=G]2 [^C^E^G]2 [DFA]2 | [^D^^F^A]2 [EGB]2 [^E^^G^B]2 | %491
[K:bass]!ped! [C,,,C,,]2 [B,^D^E]2 [B,DE]2!ped-up! |!ped! !>![F,,,F,,]2 [A,=E]2 [A,E]2!ped-up! | %493
!ped! !>![F,,,F,,]2 [A,E]2 [A,E]2!ped-up! |!ped! !>![F,,,F,,]2 [A,E]2 [A,E]2!ped-up! | %495
!ped!!f! [B,,,B,,]2 [A,C=F]2 [A,CF]2!ped-up! |!ped! [B,,,B,,]2 [A,^B,E]2 [F,A,C]2!ped-up! | %497
!ped! [B,,,B,,]2 [E,A,^B,]2 [E,A,B,]2!ped-up! |!ped! B,,2 .[A,C]2 .[A,C]2!ped-up! | %499
!ped!!<(! B,,2 .[F,A,]2!<)! .[F,A,]2!ped-up! || %500
[K:C]!ped! [D,,,D,,]3!ped-up! .[D,_A,_B,] .[D,A,B,]2 |!f!!ped! !>!G,,,^G,,A,,^A,,B,,D,!ped-up! | %502
!ped! C,,C,B,,=A,,A,,^D,,!ped-up! |!ped! ^F,,A,,G,,E,,B,,,A,,,!ped-up! | %504
!ped! [D,,,D,,]3 .[D,_A,_B,] .[D,A,B,]2!ped-up! |!f!!ped! G,,,!<(!^F,,G,,^G,,A,,B,,!ped-up! | %506
!ped! C,,C,^D,!<)!E, B,2!ped-up! |!ped! [E,,E,]2 [C,,C,]2 [_A,,,_A,,]2!ped-up! | %508
!ff!!ped! [D,,,D,,]3 .[D,_A,_B,] .[D,A,B,]2!ped-up! |!f!!ped! G,,,!<(!^G,,A,,^A,,B,,D,!ped-up! | %510
!ped! C,,C,B,,=A,,A,,^D,,!ped-up! |!ped! ^F,,A,,G,,E,,B,,,!<)!A,,,!ped-up! | %512
!ped! [E,,,E,,]3 .[E,_B,C] .[E,B,C]2!ped-up! |!f!!ped! A,,,!<(!^A,,B,,^B,,^C,!<)!=F,!ped-up! | %514
!ped! [^F,,,^F,,]3 .[^F,=CD] .[F,CD]2!ped-up! |!f!!ped! B,,,!<(!^B,,^C,^^C,^D,=G,!ped-up!!<)! | %516
!f!!<(! [^G,,,^G,,]3 .[^G,^A,] .[G,A,]2 | [B,,,B,,]3 .[B,^C] .[B,C]2 | [D,,D,]2 .[DE]2 [F,,F,]2 | %519
 .[FG]2 [^G,,^G,]2!<)! .[^G^A]2 ||[K:Eb]!ped! [D,,D,]2 [A,CF]2 z2!ped-up! | %521
!ped! B,,,!>(!=E,,F,,G,,!>)!A,,!ped-up!=B,, |!ped! [D,,D,]2 [A,CF]2 z2!ped-up! | %523
!ped! B,,,=E,,F,,G,,A,,!ped-up!=B,, | x6 | z6 |!ped! B,,2 _D4!ped-up! |!ped! z2 =D4!ped-up! | %528
!ped! [E,,E,]2 [G,B,E]2 [B,,,B,,]2!ped-up! |!ped! [E,,E,]2 [G,B,E]2 [B,,,B,,]2!ped-up! || %530
[K:Db]!ped!!<(! [G,,,G,,]2 [B,DG]2!<)! z2!ped-up! |!ped! D,,2 [=A,C]2 [B,D]2!ped-up! | %532
!ff!!ped! [=A,,,=A,,][I:staff -1]B,,[I:staff +1][C,,C,][I:staff -1]D,[I:staff +1][F,,F,]!ped-up![I:staff -1]G, | %533
!ped!!p![I:staff +1] [G,,,G,,]2 [B,DG]2 z2!ped-up! |!ped! D,,2 [=A,C]2 [B,D]2!ped-up! | %535
!ped! [=A,,,=A,,][I:staff -1]B,,[I:staff +1][C,,C,][I:staff -1]D,[I:staff +1][F,,F,]!ped-up![I:staff -1]G, | %536
[I:staff +1][K:treble]!ped! =A,B,CDFG!ped-up! | %537
!ped! =ABc!mf![I:staff -1]d[I:staff +1]A!ped-up![I:staff -1]B | %538
[I:staff +1][K:bass]!ped! FB,FB, F2-!ped-up! |!ped! F=B,FB, F2-!ped-up! |!ped! FCFC F2!ped-up! | %541
 =B,C=DEB,C |!ped! =GCGC G2-!ped-up! |!ped! G^C=GC G2-!ped-up! ||[K:C]!ped! GDGD G2!ped-up! | %545
!ped! z DEF!ped-up!^CD |!ped![I:staff -1] A[I:staff +1]D[A,A]D-!ped-up! [A,DA]2 | %547
!ped! z DEF^C!ped-up!D |!ped![I:staff -1] A[I:staff +1]D[A,A]D- [A,DA]2!ped-up! | %549
!ped!!f! [G,,G,]2[K:treble] [D_A_B]2 [DAB]2!ped-up! | %550
[K:bass]!ped! [G,,G,]2[K:treble] [_DF_c]2 [DFc]2!ped-up! | %551
[K:bass]!ped! [G,,G,]2 [^B,C^E]2 [B,CE]2!ped-up! |!ped! [G,,G,]2 [^A,^^C^E]2 [A,CE]2!ped-up! | %553
!ped! G,,2 [^G,B,E]2 [G,B,E]2!ped-up! |!ped! G,,2 [^E,^G,^C]2 [E,G,C]2!ped-up! | %555
!ped! G,,2 [E,^G,B,]2!ff! [E,G,B,]2!ped-up! |!ped! z2 z2 F,2!ped-up! | z2 B,,2 D,2 | z2 D,2 B,2 | %559
 z2 B,,2 D,2 | z2 B,,2 D,2 | z2 B,,2 D,2 | G,,,2 G,,2 F,2 | z2 B,,4 | z2 B,,2 D,2 | z2 ^G,,2 B,,2 | %566
 z2 ^G,,2 B,,2 | z2 ^G,,2 B,,2 | B,,2 D,2 z2 | B,,4 E,2 | z2 G,,2 D,2 | z2 E,,2 G,,2 | %572
 z2 G,,2 D,2 | z2 E,,2 G,,2 | _B,,,2- [B,,,G,,]4 | D,,4 _B,,2 |!f!!>(!!8vb(! E,,,2- [E,,,E,,]4 | %577
 E,,,4-!>)! [E,,,_B,,,]2!8vb)! ||[K:D]!pp! D,,C,,=C,,B,,,_B,,,A,,, | D,,C,,=C,,B,,,_B,,,A,,, | %580
 D,,C,,=C,,B,,,_B,,,A,,, | D,,C,,=C,,B,,,_B,,,A,,, | D,,C,,=C,,B,,,_B,,,A,,, | %583
 D,,C,,=C,,B,,,_B,,,A,,, | D,,C,,=C,,B,,,_B,,,A,,, | D,,C,,=C,,B,,,_B,,,A,,, | %586
 ^D,,=D,,C,,=C,,_B,,,A,,, | E,,^D,,=D,,^C,,!p!=C,,A,,, | G,,F,,=F,,E,,_E,,D,, | %589
 G,,F,,=F,,E,,_E,,D,, | ^G,,=G,,F,,=F,,_E,,D,, | A,,^G,,=G,,F,,!p!!p!=F,,D,, | D,C,=C,B,,_B,,A,, | %593
 ^D,=D,C,=C,B,,^A,, | E,^D,=D,C,=C,B,, | E,^D,=D,C,"^poco cresc."!p!=C,B,, | E,^D,=D,C,=C,B,, | %597
 E,^D,=D,C,!p!=C,B,, | F,^E,=E,^D,=D,C, |!>(! F,^E,=E,^D,!>)!!p!!p!=D,C, | %600
"^cresc."!ped! A,^G,=G,F,^E,C,!ped-up! |!ped! A,^G,=G,F,!ped-up!!p!^E,=D, | %602
!ped! A,^G,=G,F,!ped-up!^E,=D, |!ped! A,^G,=G,F,!ped-up!^E,=D, |!ped! C^B,=B,^A,!ped-up!!p!=A,F, | %605
!ped! C^B,=B,^A,!ped-up!=A,F, |!ped!!>(! C^B,=B,^A,!ped-up!=A,^E,!>)! | %607
!p!!ped! C^B,=B,^A,!ped-up!=A,F, ||[K:Db]!ped! =G,,2 =G,2!ped-up! D2 |!ped! _A,,2 _A,2 D2!ped-up! | %610
 z2 [=A,,=A,]4 | z2 [B,,B,]4 | z2 [_C,_C]4 | z2 [=C,=C]4 | z2 [D,D]4 | z2 [=D,=D]4 | z2 [E,E]4 | %617
 z2 [=E,=E]4 | z2 [F,F]4 | z2 [G,G]4 | z2 [=G,=G]4 | z2 [A,A]4 | z2 [=A,=A]4 | %623
 z2 [B,B]2 [=B,=B]2 ||[K:E] z2[K:treble]!mp! .[EG]2 .[EG]2 | %625
[K:bass] z2[K:treble]!mp! .[EG]2 .[EG]2 |[K:bass] z2[K:treble]!mf! .[EG]2 .[EG]2 | %627
[K:bass] z2[K:treble]!mf! .[EG]2 .[EG]2 |[K:bass]!f! z2[K:treble]!mf! .[GB]2 .[GB]2 | %629
[K:bass]!f! z2[K:treble]!mf! .[GB]2 .[GB]2 |[K:bass] z2[K:treble]!mf! .[GB]2 .[GB]2 | %631
[K:bass] z2[K:treble]!mf! .[DAB]2 .[DAB]2 |[K:bass] z2[K:treble]!mf! .[DAB]2 .[DAB]2 | %633
[K:bass] z2[K:treble]!mf! .[DAB]2 .[DAB]2 |[K:bass] z2[K:treble]!mf! .[DAB]2 .[DAB]2 | %635
[K:bass] z2[K:treble]!mf! .[D=AB]2 .[DAB]2 |[K:bass]!ped! [B,,B,]2 [^B,,^B,]2 [C,C]2!ped-up! | %637
!ped! [^^C,^^C]2 [D,D]2 [E,E]2!ped-up! |!ped! [^E,^E]2 [F,F]2 [^^F,^^F]2!ped-up! | %639
[K:treble]!ped! [G,G]2 [A,A]2 [^A,^A]2!ped-up! |!ped! [B,B]2 [^B,^B]2 [Cc]2!ped-up! | %641
!ped! [^^C^^c]2 [Dd]2 [Ee]2!ped-up! |!ped! [^E^e]2 [Ff]2 [^^F^^f]2!ped-up! | %643
!ped! [Gg]2 [Aa]2 [^A^a]2!ped-up! || %644
[K:F][K:bass] z2!fff!!8vb(!!ped! !>![A,,,,_B,,,,^C,,,]2!8vb)! [^CFA]2-!ped-up! | [CFA]4 [=B,EG]2- | %646
 [B,EG]2!mp! [A,^CF]4 |!ped! z2 [D,_B,]2 [F,B,]2!ped-up! |!ped! z2 [D,B,]2 [F,B,D]2!ped-up! | %649
!ff!!8vb(!!ped! [C,,,C,,]2!8vb)! [^G,^C=F^G]4-!ped-up! | [G,CFG]2 E2 D2 | %651
!ped! z2 [A,C]2 [FA]2!ped-up! |!ped! z2 [A,C]2 [FA]2!ped-up! |!f!!ped! D,,4!ped-up! D,2 | %654
 [^F,_B,D]2 z4 |!ped! [G,,,G,,]2 D,2- [D,G,_B,]2!ped-up! | %656
!mf!!ped! [G,,,G,,]2!<(! D,,2 D,2!ped-up!!<)! |!ped!!ff! [_B,,,_B,,]2 F,2- [F,B,_D]2!ped-up! | %658
!mf!!ped! [B,,,B,,]2 F,,2 F,2!ped-up! || %659
[K:C]!ped!!ff! [^C,,^C,]2!mf!!<(! ^G,2- [G,^CE]2!ped-up!!<)! | %660
!ped!!ff! [E,,E,]2!mf!!<(! =B,2 [B,E=G]2!ped-up!!<)! | %661
!ped!!f!!<(! [G,,_B,,D,G,]4 [B,,_D,F,_B,]2!ped-up! |!ped! [^C,E,^G,^C]4!<)! [E,=G,B,E]2!ped-up! | %663
!ped! [_A,,,_A,,]2 !arpeggio![G,^A,C]4!ped-up! | %664
!ped! z2 (7:4:7C,/^F,/_A,/[I:staff -1][CD]/_E/^F/_A/[I:staff +1] x2!ped-up! | %665
!ped!!f! [_A,,,_A,,]2 !arpeggio![G,_A,C]4 |!ped-up! %666
!ff!!ped! z2!>(! (7:4:7C,/^F,/_A,/[I:staff -1][CD]/_E/^F/_A/!>)![I:staff +1] x2!ped-up! | %667
 z!8vb(! D,,,_E,,,G,,,_A,,,C,,!8vb)! | _F,,_E,,G,,_A,,=B,,C, | _F,_E,D,E,G,_A, | %670
 [_A,,_E,]2 z2[K:treble] .[_E_Ac]2 | .[=C=F=A]2 .[=A,D^F]2[K:bass] .[^F,B,^D]2 | %672
 .[_E,_A,=C]2 .[C,F,=A,]2!ff! .[A,,D,^F,]2 |!ped! [C,,C,]2 [=B,CE]4 |!ped-up! %674
!ped! z2 E,/4^A,/4=C/4[I:staff -1]E/4^F/4!ff!G/4^A/4=c/4[I:staff +1] x2!ped-up! | %675
!ped! [C,,C,]2 [=B,CE]4!ped-up! | %676
!fff!!ped! z2 E,/4^A,/4=C/4[I:staff -1]E/4^F/4G/4^A/4=c/4!mf![I:staff +1] x2!ped-up! | %677
 z!mf! ^F,,,G,,,!<(!B,,,C,,E,, | _A,,^F,,G,,B,,C,E, | _A,G,^D,E, z2 | [C,,G,,]2 z2 .[=G,C=E]2 | %681
 .[E,A,^C]2 .[^C,^F,^A,]2 .[^A,,^D,^^F,]2 | .[=G,,=C,=E,]2 .[E,,A,,^C,]2 .[^C,,^F,,^A,,]2!<)! | %683
!ped!!ff! [E,,,E,,]2 !arpeggio![^DE^G]4!ped-up! | %684
!fff!!ped! z2 ^G,/4D/4E/4[I:staff -1]^G/4^A/4B/4d/4e/4[I:staff +1] z2!ped-up! | %685
!ped! [E,,,E,,]2!>(! x x/[K:treble] x/ x2!ped-up!!>)! | %686
[K:bass]!ped!!mf! [E,,E,]2 [B,^DE]2 [B,DE]2!ped-up! |!ped! [E,,E,]2 [_B,=DE]2 [B,DE]2!ped-up! | %688
!ped! [E,,E,]2 [A,^CE]2 [A,CE]2!ped-up! |!ped! [E,,E,]2 [^G,CE]2 [G,CE]2!ped-up! | %690
!ped! [E,,E,]2 [=G,B,E]2 [G,B,E]2!ped-up! |!ped! [E,,E,]2 [^F,^A,E]2!ff! [F,A,E]2!ped-up! || %692
[K:D]!ped! [E,,,E,,]2 !arpeggio![G,B,D]2 [G,B,D]2!ped-up! | %693
!ped! [E,,E,]2 !arpeggio![G,B,D]4!ped-up! |!ped! [E,,,E,,]2 [E,,E,]2!ped-up! [^E,,^E,]2 | %695
!ped! [F,,F,]2 [G,,G,]2 [^G,,^G,]2!ped-up! |!ped! [A,,A,]2 [^A,,^A,]2!ped-up! [B,,B,]2 | %697
!ped! [^B,,^B,]2 [C,C]2 [D,D]2!ped-up! |!ped! [^D,^D]2 [E,E]2!ped-up! [^E,^E]2 | %699
!ped! [F,F]2 [G,G]2 [^G,^G]2!ped-up! |!ped! [A,A]2 [DFB]2!ped-up! [DFB]2 | %701
!p!!ped! [E,,,E,,]2 D,2- [D,G,B,D]2!ped-up! |!ped! [E,,,E,,]2 [G,B,D]2 [G,B,D]2!ped-up! | %703
!ped! [A,,,A,,]2 D,2- [D,F,B,D]2!ped-up! |!ped! [A,,,A,,]2 [D,F,B,]2 [D,F,B,]2!ped-up! | %705
!p!!ped! [A,,,A,,]2 B,,2-!ff! [B,,^D,F,A,]2!ped-up! | %706
!ped! [A,,,A,,]2 [=C,E,G,B,]2 [^C,^E,^G,B,]2!ped-up! |!p!!ped! [D,,D,]2 D,2 [D,F,A,B,]2!ped-up! | %708
!ped! [D,,D,]2 [F,B,D]2 [F,B,D]2!ped-up! |!ped! [E,,,E,,]2 [G,B,D]2 [G,B,D]2!ped-up! | %710
 =A,3 ^A,, =A,2- | A,G, F,3 C, |!ped! !arpeggio![E,,,E,,]2 [G,B,D]2 [G,B,D]2!ped-up! | %713
!ped! [A,,,A,,]2 [F,B,D]2 [F,B,D]2!ped-up! |!ped! [A,,,A,,]2 [D,F,B,]2 [D,F,B,]2!ped-up! | %715
 !>![A,,,A,,]3 .[C,F,^A,] .[C,F,A,]2 | !>![A,,,A,,]3 .[C,F,^A,] .[C,F,A,]2 | %717
 !>![A,,,A,,]!>![A,,,A,,] .[A,,,A,,]2 .[C,F,^A,]2 | %718
 !>![A,,,A,,]!>![A,,,A,,] .[A,,,A,,]2 .[C,F,^A,]2 | !>![A,,,A,,]2 .[F,^A,]2 !>![A,,,A,,]2 | %720
 .[E,^G,]2 !>![A,,,A,,]2 .[D,E,G,]2 || %721
[K:C] ._B,,,2!f!!ped! (5:4:5=E,!<(!F,[I:staff -1]G,_A,!<)!=A,!ped-up! | %722
!8vb(![I:staff +1] [A,,,,_B,,,,]2!8vb)!!ped! E,,/F,,/G,,/_A,,/!mf! C,2!ped-up! | %723
!ped! F,,2 [F,_B,_D]4!ped-up! | ._B,,,2!f!!ped! (5:4:5=E,F,[I:staff -1]G,_A,=A,!ped-up! | %725
!8vb(![I:staff +1] [A,,,,_B,,,,]2!8vb)!!>(!!ped! E,,/F,,/G,,/_A,,/ C,2!ped-up!!>)! | %726
!mf!!ped! F,,2 [F,_B,_D]4!ped-up! | [_B,,,_B,,]2 .F,2 [B,,,B,,]2 | %728
 .[F,_G,]2 [_B,,,_B,,]2 .[F,=G,]2 | [^A,,,^A,,]2!ped! z2 z2!ped-up! | %730
!8vb(! [A,,,,_B,,,,]2!ped!!8vb)! ^G,,/^B,,/^C,/[^E,=G,]/ =B,2!ped-up! | %731
!mf!!ped! ^A,,2 [^G,^CE]4!ped-up! | [^A,,,^A,,]2!ped! z2 z2!ped-up! | %733
!8vb(! [A,,,,_B,,,,]2!ped!!8vb)! ^G,,/^B,,/^C,/[^E,=G,]/ =B,2!ped-up! | %734
!mf!!ped! ^A,,2 [^G,^CE]4!ped-up! | [^A,,,^A,,]2 .^G,2 [A,,,A,,]2 | %736
 .[^G,A,]2 [^A,,,^A,,]2 .[G,^A,]2 |!ped! [^A,,,^A,,]2 [^G,^CD]3 .[G,CD]!ped-up! | %738
!ped! [^A,,,^A,,]2 [^G,^B,D]2 [=E,G,]2!ped-up! |!ped! [^A,,,^A,,]2 [^G,^CD]3 .[G,CD]!ped-up! | %740
!ped! [^A,,,^A,,]2 [^G,^B,D]2 [=E,G,]2!ped-up! | %741
!mf!!ped! [^A,,,^A,,]2 [^G,^CD]2"^cresc. molto" .[G,^B,E]2!ped-up! | %742
!ped! [^A,,,^A,,]2 [^G,^CD]2!ped-up! .[G,^B,E]2 |!ped! [^A,,,^A,,]2 [^G,^CD]2!ped-up! .[G,^B,E]2 | %744
!ped! [^A,,,^A,,]2 [^G,^CD]2!ped-up! .[G,^B,E]2 |!ped! [^A,,,^A,,]2 [^G,^CD]2!ped-up! .[G,^B,E]2 | %746
!ped! [^A,,,^A,,]2 [^G,^CD]2!ped-up! .[G,^B,E]2 |!ped! [^A,,,^A,,]2 [^G,^CD]2!ped-up! .[G,^B,E]2 | %748
!ped! [^A,,,^A,,]2 [^G,^CD]2!ped-up! .[G,^B,E]2 |!ped! [^A,,,^A,,]2 [^G,^CD]2!ped-up! .[G,^B,E]2 | %750
!ped! [^A,,,^A,,]2 [^G,^CD]2!ped-up! .[G,^B,E]2 |!ped! [^A,,,^A,,]2 [^G,^CD]2!ped-up! .[G,^B,E]2 | %752
!ped! [^A,,,^A,,]2 [^G,^CD]2!ped-up! .[G,^B,E]2!ped-up!!ped! || %753
[K:D] [F,^A,E]2 !>!_B,,,!>!^G,,,!>!B,,,!>!A,,, | !>![D,,,D,,]2 z2 z2 |] %755
V:3
!8vb(! x6 | x6 | x6 | x6 | E,,,2 .F,,,2 z2 | E,,,2 .F,,,2 z2 | E,,,2 .F,,,2 z2 | E,,,2 .F,,,2 z2 | %8
 E,,,2 .F,,,2 .F,,2 | E,,,2 .F,,,2 .F,,2 | E,,,2 .F,,,2 .F,,2 | E,,,2 .F,,,2 .F,,2 | %12
 E,,,2 .F,,,2 .F,,2 | E,,,2 .F,,,2 .F,,2 | E,,,2 .F,,,2 .F,,2 | E,,,2 .F,,,2 .F,,2 | %16
 E,,,2 .F,,,2 .F,,2 | E,,,2 .F,,,2 .F,,2 | E,,,2 .F,,,2 .F,,2 | E,,,2 .F,,,2 .F,,2 | %20
 E,,,2 .F,,,2 .F,,2 | E,,,2 .F,,,2 .F,,2 | E,,,2 .F,,,2 .F,,2 | E,,,2 .F,,,2 .F,,2 | %24
 E,,,2 .F,,,2 .F,,2 | E,,,2 .F,,,2 .F,,2 | E,,,2 .F,,,2 .F,,2 | E,,,2 .F,,,2 .F,,2 | %28
 E,,,2 .F,,,2 .F,,2 | E,,,2 .F,,,2 .F,,2 | E,,,2 .F,,,2 .F,,2 | E,,,2 .F,,,2 .F,,2 | %32
 E,,,2 .F,,,2 .F,,2 | E,,,2 .F,,,2 .F,,,2 | E,,,2 .F,,,2 .F,,,2 | x6 | x6 | x3!8vb)! x3 | x6 | x6 | %40
 x6 | x6 | x6 | x6 | x6 | x6 | E,,3 z3 | x6 | x6 | x6 | x6 | x6 | x6 | x6 | x6 | x6 | x6 | x6 | %58
 x6 | x6 | x6 | x6 | x6 | x6 | x6 ||[K:D] B,,,2 x2 x2 | D,,2 A,,2 x2 | A,,,2 x4 | D,,2 x4 | %69
 A,,,2 x4 | D,,2 x4 | A,,,2 x4 | D,,2 x4 | A,,,2 x4 | E,,2 x4 | A,,,2!>(! x4!>)! | E,,2 x4 | x6 | %78
 E,,2 x4 | A,,,2 x4 | E,,2 x4 | A,,,2 x4 | E,,2 x4 | A,,,2 x4 | =D,,2 x4 | x6 | x6 | x6 | D,,2 x4 | %89
 A,,,2 x4 | D,,2 x4 | A,,,2 x4 | D,,2 x4 | A,,,2 x4 | E,,2 x4 | E,,2 z4 | x6 | x6 | x6 | x6 | x6 | %101
 x6 | x6 | x6 | x2[K:treble] x4 |[K:bass] x6 | x6 | x6 | x6 | x6 | x6 | x6 | x6 | x6 | x6 | %115
 [A,,,A,,]2 x4 | x6 | x6 | x6 | x6 | x6 | x6 | x6 | x6 | x6 | x6 | x6 | x6 | x6 | x6 | x6 | x6 | %132
 x6 | x6 | x6 | x6 | x6 | x6 | x6 | x6 | x6 | x6 | x6 | x6 | x6 | x6 | x6 | x6 | x6 | x6 | x6 | %151
 x6 | x6 | x6 | x6 | x6 | x6 | x6 | x6 | x6 | x6 | x6 | x6 | x6 | x6 | x6 | x6 | x6 | x6 | x6 | %170
 x6 | x6 | x6 | x6 | x6 | x6 | x6 | x6 ||[K:C] x6 | x6 | x4[K:treble] x2 | x6 |[K:bass] x6 | x6 | %184
 x4[K:treble] x2 | x6 |[K:bass] x6 | x6 | x6 | F,,6 | x2 B,2 C2 | x2 C2!mf! ^C2 | x2 ^C2 D2 | x6 | %194
 x6 | [=E,,,=E,,]6 | x4[K:treble] x2 | x6 |[K:bass] x6 | [^C,,,^C,,]6 | x6 |[K:treble] x6 || %202
[K:D][K:bass] x6 | x6 | x6 | E,,6 | x2 ^A,2 B,2 | x2 B,2 ^B,2 | x2 ^B,2 C2 | D,,2 z2 z2 || %210
[K:Bb]!8vb(! x2!8vb)! x4 | x6 | x6 | x6 | E,,6 |[K:treble] x6 |[K:bass]!8vb(! [C,,,C,,]6-!8vb)! | %217
 !>![C,,C,]6 | x6 | x6 | x6 |[K:treble] x6 |[K:bass] x6 | x6 | =F,,6- | F,,6 |!8vb(! x2!8vb)! x4 | %227
 x6 | x6 | x6 | E,,6 |[K:treble] x6 |[K:bass]!8vb(! [C,,,C,,]6-!8vb)! | [C,,C,]6 | [C,,C,]6 | %235
 [_D,,_D,]6 | [=D,,=D,]6 | [E,,E,]6 | [=E,,=E,]6 | [F,,F,]6 | x6 | x6 || %242
[K:Eb] !>!A,,2 !>!G,2 !>!C2 | !>!E,,2 !>!=F,2 !>!C2 | !>!A,,2 !>!G,2 !>!C2 | %245
 !>!E,,2 !>!=F,2 !>!C2 | !>!A,,2 !>!G,2 !>!C2 | !>!E,,2 !>!=F,2 !>!C2 | !>!A,,2 !>!G,2 !>!C2 | %249
 !>!E,,2 !>!F,2 !>!C2 | !arpeggio!!>![C,,F,,C,]2 !>!F,2 !>!=A,2 | !>!F,,,2 !>!E,2 !>!G,2 | %252
 !arpeggio!!>![C,,F,,C,]2 !>!F,2 !>!=A,2 | !>!F,,,2 !>!E,2 !>!G,2 | %254
 !arpeggio!!>![C,,F,,C,]2 !>!F,2 !>!=A,2 | x6 | x6 | x6 | !>!A,,2 !>!G,2 !>!C2 | %259
 !>!E,,2 !>!=F,2 !>!C2 | !>!A,,2 !>!G,2 !>!C2 | !>!E,,2 !>!=F,2 !>!C2 | !>!A,,2 !>!G,2 !>!C2 | %263
 !>!E,,2 !>!=F,2 !>!C2 | !>!A,,2 !>!G,2 !>!C2 | !>!E,,2 !>!F,2 !>!C2 | %266
 !arpeggio!!>![C,,F,,C,]2 !>!F,2 !>!=A,2 | !>!F,,,2 !>!E,2 !>!G,2 | %268
 !arpeggio!!>![C,,F,,C,]2 !>!F,2 !>!=A,2 | !>!F,,,2 !>!E,2 !>!G,2 | %270
 !arpeggio!!>![C,,F,,C,]2 !>!F,2 !>!=A,2 | x6 | x6 | x6 ||[K:F] x6 | x6 | x6 | x6 | G,6 | C,6 | %280
 F,6 | G,,6 | x6 | x6 | x6 | x6 | A,,6 | A,,6 | D,,6 | x6 || x6 | x6 | x6 | x6 | x6 | x6 | x6 | %297
 x6 | x6 | x6 | x6 | x6 | x6 | x6 | x6 | x6 | x6 |[K:treble] A,6 | A,6 | A,6 |[K:bass] x6 | %311
[K:treble] A,6 | A,6 |[K:bass] x6 | x6 |[K:treble] A,6 | A,6 | A,6 |[K:bass] x6 |[K:treble] x6 | %320
 x6 | x6 | x6 |[K:bass] x6 | x6 | x6 | x6 | x6 | x6 | x6 ||[K:D] x6 | x6 | x6 | x6 | x6 | x6 | x6 | %337
 x6 | x6 | x6 | x6 | x6 | x6 | x6 | x6 | x6 ||[K:F] x6 | x6 | x6 | x6 | x6 | x6 | x6 | x6 | x6 | %355
 x6 | x6 | x6 | x6 | x6 | x6 | x2[K:treble] x4 ||[K:D][K:bass] [D,,D,]6 | [D,,D,]6 | [_B,,,_B,,]6 | %365
 [E,,,E,,]6 | x6 | x6 | x6 | x6 ||[K:Bb] x6 | x6 | x6 | x6 | x6 | x6 | x6 | x6 | x6 | x6 | x6 | %381
 x6 | [F,,,F,,]6 | x6 | x6 | x6 ||[K:Db] =A,,6 | =A,,6 | x6 | x6 | _A,,6 | _A,,6 | x6 | x6 | %394
 B,,,6 | B,,,6 | [=B,,,=B,,]6 | [C,,C,]6 ||[K:C] [^C,,^C,]6 | x6 | x6 | x6 | x6 || %403
[K:A][K:treble] x6 | x6 | x6 | x6 | x6 | x6 | x6 |[K:bass] x2[K:treble] x4 | x6 | %412
[K:bass] x103/60[K:treble] x103/24 | x6 | x6 | x6 | x6 | x6 | x6 | x6 |[K:bass] x2[K:treble] x4 | %421
 x6 ||[K:C][K:bass] x6 |[K:treble] G,2 z2 z2 | B2 z2 z2 | =G,2 z2 z2 |[K:bass] x2[K:treble] x4 | %427
 ^C2 z2 z2 |[K:bass] x2[K:treble] x4 | B,2 z2 z2 |[K:bass] x2[K:treble] x4 | B,2 z2 z2 | %432
[K:bass] x6 | x6 | x6 | x6 |[K:treble] G,2 z2 z2 | G2 z2 z2 | x6 | x4/3[K:bass] x14/3 | %440
!8vb(! E,,,2 F,,,2 z2 | E,,,2 F,,,2 F,,2 | E,,,2 F,,,2 F,,2 | E,,,2 F,,,2 F,,2 | E,,,2 F,,,2 F,,2 | %445
 E,,,2 F,,,2 F,,2 | E,,,2 F,,,2 F,,2 | E,,,2 F,,,2 F,,2 | E,,,2 F,,,2 F,,2 | E,,,2 F,,,2 F,,2 | %450
 E,,,2 F,,,2 F,,2 | E,,,2 F,,,2 F,,2 | E,,,2 F,,,2 F,,2 | E,,,2 F,,,2 F,,2 | E,,,2 F,,,2 F,,2 | %455
 E,,,2 F,,,2 F,,2 | x9/4!8vb)! x15/4 | x6 | x6 | x6 | x6 | x6 | x6 | x6 | x6 | x6 | x6 | x6 | x6 | %469
 _E,,2 x4 | x6 | x6 ||[K:A] x6 | x6 | x6 | x6 | x6 | x6 | x6 | x6 | x6 | x6 | x6 | x6 | %484
 [E,,,E,,]6 | x6 | x6 | x6 | [E,,E,]6 |[K:treble] x6 | x6 |[K:bass] x6 | x6 | x6 | x6 | x6 | x6 | %497
 x6 | x6 | x6 ||[K:C] x6 | x6 | x6 | x6 | x6 | x6 | x6 | x6 | x6 | x6 | x6 | x6 | x6 | x6 | x6 | %515
 x6 | x6 | x6 | x6 | x6 ||[K:Eb] x6 | x6 | x6 | x6 | x6 | x6 | x2 [A,_D]2 [A,D]2 | %527
 x2 [=A,D]2 [A,D]2 | x6 | x6 ||[K:Db] x6 | x6 | x6 | x6 | x6 | x6 |[K:treble] x6 | x6 | %538
[K:bass] E,2 z2 z2 | E,2 z2 z2 | A,,2 A,2 A,2 | x6 | F,2 A,2 A,2 | F,,2 =A,2 A,2 || %544
[K:C] _B,,2 _B,2 B,2 | G,,2 z2 [_A,_B,]2 | _B,,2 z2 z2 | G,,2 z2 [_A,_B,]2 | _B,,2 z2 z2 | %549
 x2[K:treble] x4 |[K:bass] x[K:treble] x5 |[K:bass] x6 | x6 | x6 | x6 | x6 | [G,,,G,,]6 | G,,6 | %558
 [G,,,G,,]6 | G,,6 | [G,,,G,,]6 | G,,6 | x6 | G,,2 B,,2 F,2 | B,,,6 | [B,,E,]6 | [B,,,B,,]6 | %567
 [B,,E,]6 | [B,,,B,,]6 | x6 | _B,,,6 | [_B,,G,]6 | _B,,,6 | [_B,,G,]6 | x6 | _B,,,6 |!8vb(! x6 | %577
 x6!8vb)! ||[K:D] !>!=A,,,2 x2 !>![D,,F,,]2 | !>!=A,,,2 x2 !>![D,,F,,]2 | %580
 !>!=A,,,2 x2 !>![D,,F,,]2 | !>!=A,,,2 x2 !>![D,,F,,]2 | !>!=A,,,2 x2 !>![D,,F,,]2 | %583
 !>!=A,,,2 F,,2 !>![D,,F,,]2 | !>!=A,,,2 F,,2 !>![D,,F,,]2 | !>!=A,,,2 F,,2 !>![D,,F,,]2 | %586
 !>!=A,,,2 F,,2 !>![D,,F,,]2 | !>!=A,,,2 [F,,^A,,]2 !>![E,,=G,,]2 | %588
 !>!=A,,,2 !>![=A,,C,]2 !>![G,,D,]2 | !>!A,,,2 !>!B,,2 !>![=G,,^B,,]2 | %590
 !>!A,,,2 !>![C,^E,]2 !>![^G,,C,]2 | !>!A,,,2 !>![D,F,]2 !>![A,,D,]2 | %592
 !>!A,,,2 !>![D,F,]2 !>![A,,D,]2 | !>!A,,,2 !>![^D,F,]2 !>![A,,D,]2 | %594
 !>!A,,,2 !>![E,G,]2 !>![B,,E,]2 | !>!A,,,2 !>![E,G,]2 !>![B,,G,]2 | %596
 !>!A,,,2 !>![B,,G,]2 !>![=C,G,]2 | !>!A,,,2 !>![C,E,G,]2 !>![^C,^G,]2 | %598
 !>!A,,,2 !>!A,2 !>![D,A,]2 | !>!A,,,2 A,2 !>!D,2 | !>!B,,,2 [C,^E,]2 z2 | %601
 !>!^B,,,2 !>![^B,,^E,]2 z2 | !>!C,,2 !>![C,^E,]2 F,2 | !>!D,,2 !>![D,^E,]2 F,2 | %604
 !>!^D,,2 !>![^D,^B,]2 z2 | !>!=E,,2 !>![=E,^B,]2 z2 | !>!^E,,2 !>![^E,^^C]2 z2 | %607
 !>!^F,,2 !>!F,2 z2 ||[K:Db] x6 | x6 | [_A,,,_A,,]6 | [_A,,,_A,,]6 | [A,,,A,,]6 | [A,,,A,,]6 | %614
 [A,,,A,,]6 | [A,,,A,,]6 | [A,,,A,,]6 | [A,,,A,,]6 | [A,,,A,,]6 | [A,,,A,,]6 | [A,,,A,,]6 | %621
 [A,,,A,,]6 | [A,,,A,,]6 | [A,,,A,,]6 ||[K:E] [B,,,B,,]6[K:treble] | %625
[K:bass] [^B,,,^B,,]6[K:treble] |[K:bass] [C,,C,]6[K:treble] |[K:bass] [=D,,=D,]6[K:treble] | %628
[K:bass] [^D,,^D,]6[K:treble] |[K:bass] [E,,E,]6[K:treble] |[K:bass] [^E,,^E,]6[K:treble] | %631
[K:bass] [F,,F,]6[K:treble] |[K:bass] [^^F,,^^F,]6[K:treble] |[K:bass] [G,,G,]6[K:treble] | %634
[K:bass] [A,,A,]6[K:treble] |[K:bass] [^A,,^A,]6[K:treble] |[K:bass] x6 | x6 | x6 |[K:treble] x6 | %640
 x6 | x6 | x6 | x6 ||[K:F][K:bass] x2!8vb(! x2!8vb)! x2 | x6 | x6 | [G,,,G,,]6 | [G,,,G,,]6 | %649
!8vb(! x2!8vb)! x4 | x6 | [F,,,F,,]6 | [C,,,C,,]6 | x6 | x6 | x6 | x6 | x6 | x6 ||[K:C] x6 | x6 | %661
 x6 | x6 | x6 | [D,,,D,,]6 | x6 | [D,,,D,,]6 | x!8vb(! x5!8vb)! | x6 | x6 | x4[K:treble] x2 | %671
 x4[K:bass] x2 | x6 | x6 | [^F,,,^F,,]6 | x6 | [^F,,,^F,,]6 | x6 | x6 | x6 | x6 | x6 | x6 | x6 | %684
 [_B,,,_B,,]6 | x7/2[K:treble] x5/2 |[K:bass] x6 | x6 | x6 | x6 | x6 | x6 ||[K:D] x6 | x6 | x6 | %695
 x6 | x6 | x6 | x6 | x6 | x6 | x6 | x6 | x6 | x6 | x6 | x6 | x6 | x6 | x6 | x6 | x6 | x6 | x6 | %714
 x6 | x6 | x6 | x6 | x6 | x6 | x6 ||[K:C] x6 |!8vb(! x2!8vb)! x4 | x6 | x6 |!8vb(! x2!8vb)! x4 | %726
 x6 | x6 | x6 | x6 |!8vb(! x2!8vb)! x4 | x6 | x6 |!8vb(! x2!8vb)! x4 | x6 | x6 | x6 | x6 | x6 | %739
 x6 | x6 | x6 | x6 | x6 | x6 | x6 | x6 | x6 | x6 | x6 | x6 | x6 | x4 x x/!fff! !>![^F,,,^F,,]/- || %753
[K:D] [F,,,F,,]2 x4 | x6 |] %755
V:4
 x6 | x6 | x6 | x6 | x6 | x6 | x6 | x6 | x6 | x6 | x6 | x6 | x6 |[K:treble] x6 | x2[K:bass] x4 | %15
 x6 | x6 | x4 [F,F]2- | [F,-F]6 | F,6 | x6 | x6 | x6 | x6 | x6 |[K:treble] x6 | x2[K:bass] x4 | %27
 x6 | x6 | x6 | !//-![^A,,^C,]3 D,3 | x6 | x6 | x6 | x6 | x6 | x6 | x6 | x6 | x6 | x6 | x6 | x6 | %43
[K:treble] (8:6:8!arpeggio![D^FB]!<(!BFD ^c^A^E!<)!!p!^C | (8:6:8d!>(!B^FD[K:bass]!>)! FDB,^F, | %45
 (7:6:7B,^F,D,B,,[I:staff +1]D,B,,^F,, | x3[I:staff -1][K:treble] (4:3:4^E!pp!^C^A,^G, | %47
 (9:6:9D!pp!G,^F,=E!pp!^B,^G,^E!pp!^CA, | (8:6:8d!p!^A^FD G!p!D_B,G, | x6 | x6 | x6 | x6 | x6 | %54
 x6 | x6 |[K:bass] x6 |[K:treble] x6 |[K:bass] x2 [_B,,D,]4 | x6 | x6 | x6 | x6 | x6 | x6 || %65
[K:D] x6 | x6 | x6 | x6 | x6 | x6 | x6 | x6 | x6 | x6 | x6 | x6 | x6 | x6 | x6 | x6 | x6 | x6 | %83
 x6 | x6 | x6 | x6 | x6 | x6 | x6 | x6 | x6 | x6 | x6 | x6 | x2 !arpeggio![F,A,CF]4 | x6 | %97
[K:treble] x6 | x6 | x6 | x6 | x6 | x6 | x6 |[K:bass] x2 x2[K:treble] x2 | %105
 (8:6:8b!pp!!<(!geB^A!pp!^df!<)!^a | (8:6:8b!p!geB c!pp!BGC | (8:6:8z!pp! G,B,CGCB,G, | %108
 (8:6:8z CGB^B!pp!GE^B, | (3c!pp!GE (3e!pp!=BG (3g!p!_e^A | (6:4:6b!p!fdBBF (3B!pp!FD | x6 | %112
 x2 (3d'!pp!bf (3c'!pp!^a^e | (3d'!pp!bf (3b!p!fd (3f!p!dB | x6 | x6 | x6 | x6 | x6 | x6 | x6 | %121
 (4:3:4e'!mp!!<(!=c'ae(4:3:4^d!mf!gb!<)!^d' | (4:3:4e'!mf!=c'ae(4:3:4f!mp!e=cA | %123
 (8:6:8z!mp! =CEF=cFEC | z =CEF (3^e!mp!=cA | (3f!mp!=cA (3a!mp!e^c (3=c'!mf!_a^d | %126
 (6:4:6e'!mp!bgeeB (3e!p!BG | z2 (3^d!p!^AF (3e!p!BG | z2 (3f!mp!^d^A (3g!mp!eB | x6 | x6 | x6 | %132
 x6 | x6 | x6 | x6 | x6 | x6 | x6 | x6 | x6 | x6 | x6 | x6 | x6 | x6 | x6 | x6 | x6 | x6 | x6 | %151
 x6 | A,6 | x6 | x6 | x6 | x6 | x6 | C2 z D ^D2 | ^DE ^E3 A | c!pp!!>(!AF[^^F^A]^d!pp!B- | %161
 [^GB][=Ac]- [Ac]2!>)! z2 | x6 | x6 | x6 | x6 | x6 | x6 | x6 | x6 | x6 | x6 | x6 | x6 | F3 G ^G2- | %175
 GA ^A3 d | f!pp!dB[^B^d]=ge- | [ce][df]- [df]2 z2 ||[K:C] d'!pp!^ed^fd'f | dg x4 | z2 [=ce]4 | %181
 x6 | c'!pp!^dcec'e | cf x4 | z2 [_Bd]4 | x6 | _b!pp!^c_Bdb!mp!d | _B=e x4 | x6 | %189
 z2 !arpeggio![_c_e]4 | x6 | x6 | x6 | x6 | x6 | x6 | x6 | x6 | x6 | x6 | x6 | x6 || %202
[K:D] a!pp!^BAca!mp!c | Ad x4 | x6 | x2 !arpeggio![_Bd]4 | x6 | x6 | x6 | x6 ||[K:Bb] x6 | x6 | %212
 x6 | x6 | x6 | x6 | x2!8va(! x4 | x6 | x6 | x6 | x6 | x6 | x6!8va)! | x6 | x6 | x6 | x6 | x6 | %228
 x6 | x6 | x6 | x6 | x2!8va(! x4 | x6 | x6 | =b6 | x6 | g6!8va)! | x6 | z2 =B2 [Be]2 | x6 | x6 || %242
[K:Eb] [CE-]6 | E2 x4 | x6 | x6 | E6 | E6 | E6 | x6 | x6 | x6 | x6 | x6 | x6 | E=EF^FG=A | %256
 B=Bc^cde | =ef^fg^g=a | [CE-]6 | E2 x4 | x6 | x6 | E6 | E6 | E6 | x6 | x6 | x6 | x6 | x6 | x6 | %271
 E=EF^FG=A | B=Bcd e2 | x6 ||[K:F] z2 _E4- | E2 =E4- | E2 F2 z2 | x6 | z2 .=B2 .B2 | z2 ._B2 .B2 | %280
 z2 .A2 .F2 | ^C4 D2 | z2 _E4- | E2 =E4- | E2 F2 x2 | x6 | x6 | x6 | x6 | x6 ||!8va(! x3!8va)! x3 | %291
 x6 | x6 | x6 |!8va(! x3!8va)! x3 | x6 | x6 | x6 |!8va(! x3!8va)! x3 | x6 | x6 | x6 | %302
!8va(! x3!8va)! x3 | x6 | x6 | x6 | x6 | x6 | x6 | x6 | x6 | x6 |!8va(! x6!8va)! | x6 | x6 | x6 | %316
 x6 | x6 | x6 | x6 | x6 | x6 | x6 | x6 | x6 |[K:bass] x6 | x6 | x6 | x6 | x4 ^F,2 || %330
[K:D] ^E,4 F,2 | ^E,4 F,2 | F,6 | F,4 [G,B,]2 | [=A,C]4 [G,B,]2 | G,4[K:treble] x2 | x6 | %337
 x4[K:bass] x2 | x6 | x6 | x6 | x6 | x6 | x6 | x6 | x4[K:treble] x2 ||[K:F] x6 | x6 | x6 | x6 | %350
 x6 | x6 | x6 | x6 | x6 | x6 | x6 | x6 | x6 | x6 | x6 | x4!8va(! x2 ||[K:D] x6 | x6 | x6 | %365
 x4!8va)! x2 | x6 | x6 | x6 | x6 ||[K:Bb] x6 | x2 [cc']2 [Bb]2 | x6 | x6 | x6 | x2 [Aa]2 [Gg]2 | %376
 x6 | x6 | x6 | x6 | x6 | x6 | x6 | x6 | x6 | x6 ||[K:Db] x6 | x2 [ee']2 [dd']2 | x6 | x6 | x6 | %391
 x2 [cc']2 [_B_b]2 | x6 | x6 | x6 | x6 | [=DF]4 x2 | x6 ||[K:C] [EG]4 x2 | x6 | x6 |!8va(! x6 | %402
 x6!8va)! ||[K:A] x6 | x6 | x6 | x6 | x6 | x6 | x6 | x6 | x6 | x6 | x6 | x6 | x6 | x6 | x6 | %418
!8va(! x6!8va)! | x6 | x6 | x6 ||[K:C] x6 | x6 | x6 | x6 | x6 | x6 | x6 | x6 | x6 | x6 | x6 | x6 | %434
 x6 | x6 | x6 | x6 |!8va(! x4!8va)! x2 | x4[K:bass] x2 | x6 | x6 | x6 |[K:treble] x6 | %444
 x2[K:bass] x4 | x6 | x6 | x6 |[K:treble] x6 | x6 | x6 | x6 |[K:bass] x6 | x6 | x6 | x6 | x6 | x6 | %458
 x6 | x6 | x6 |[K:treble] x6 | x6 | x6 | x6 | x6 | (4:3:4!arpeggio![_DF=A]AF=D(4:3:4c_A^EC | %467
 (4:3:4_d!>(!AF!p!_D[K:bass](4:3:4FDA,!>)!F, | (7:6:7A,F,_D,A,,[I:staff +1]_D,A,,F,, | %469
[I:staff -1][K:treble] x3 (4:3:4EC_A,=E, | (3_D=A,F, (3_E_CG, (3=E=C_A, | x6 ||[K:A] x6 | x6 | x6 | %475
 x6 | x6 | x6 | x3[K:bass] x3 | E,C .C2 F,C | x6 | x6 | x6 | x6 |[K:treble] x6 | x6 | x6 | x6 | %488
 c2 ^e2 f2 | g2 ^g2 a2 | ^^f2 [gb]2 =a2 | x6 | x6 | x6 | x6 | x6 | x6 | x6 | x6 | x6 ||[K:C] x6 | %501
 x6 | x6 | x6 | x6 | x6 | x6 | x6 | x6 | x6 | x6 | x6 | x6 | x6 | x6 | x6 | x6 | x6 |!8va(! x6 | %519
 x6!8va)! ||[K:Eb] x6 | z2 .=B2 .c2 | x6 | z2 .=B2 .c2 |[K:bass] x6 |[K:treble] x6 | x6 | x6 | x6 | %529
 x6 ||[K:Db] x6 | z =AB!p!cde |[K:bass] x6 |[K:treble] x6 | z =AB!p!cde |[K:bass] x6 | %536
[K:treble] x6 | x6 | x6 | x6 | x2!8va(! x4 | x6 | x6!8va)! | x6 ||[K:C] x6 | x6 | x6 | x6 | x6 | %549
 x6 | x6 | x6 |!8va(! x6 | x6 | x6 | x6 | x2!8va)! x4 | x6 | x6 | x6 | x6 | x6 | x6 | x6 | %564
[K:bass] x6 | x6 | x6 | x6 | x6 | x6 | x6 | x6 | x6 | x6 | x6 | x6 | x6 | x6 ||[K:D] z2 .F,,2 z2 | %579
 z2 .F,,2 z2 | z2 .F,,2 z2 | z2 .F,,2 z2 | z2 .F,,2 z2 | x6 | x6 | x6 | x6 | x6 | x6 | x6 | x6 | %591
 x6 | x6 | x6 | x6 | x6 | x6 | x6 | x6 | x4[K:treble] x2 | x6 | x6 | x6 | x6 | x6 | x6 | x6 | x6 || %608
[K:Db] =E_EDC=A,=G, | F=E_E=D_D_A, | GF=E_E=D=A, | GF=E_E=DB, | A=G_GF_F_C | =A_A=G_GFE | %614
 B=A=G_GF=E | B=A_A=G_GF | c=B_B=A_AG | c=B_B=A_A=G | dc_cB=A_G | =d_dc_cB=A | e=d_dc_cB | %621
 =e_e=d_dc=B | f=e_e=d_d_B | f=e_e=d^c^G ||[K:E] f^e=ed=dc | =gf^e=ed=d | ^g=gf^e^d=d | %627
 g=gf^e!8va(!^d=d | ^a=ag^^f^f^e | b^a=ag^^f^f | b^a=ag^^f^f | ^b=b^a=ag^^f | c'=c'b^a=ag | %633
 =d'c'=c'b^a=a | ^d'=d'c'=c'b^a | e'd'=d'c'=c'b | a'g'=g'f'=f'e' | a'g'=g'f'=f'e' | %638
 ^g'=g'f'^e'a'^g' | =g'f'_b'a'^g'=g' | a'g'=g'f'=f'e' | a'g'=g'f'=f'e' | a'g'=g'f'=f'e' | %643
 a'g'=g'f'=f'e'!8va)! ||[K:F] x6 | x6 | x6 |[K:treble] z6 | x6 | x6 | z2 [ee']2 [dd']2 | x6 | x6 | %653
 x6 | x6 |[K:bass] x6 | x6 | x4[K:treble] x2 |[K:bass] x6 ||[K:C][K:treble] x6 | x6 | x6 | x6 | %663
 x6 | x6 | x6 | x6 |[K:bass] x6 | x6 |[K:treble] x6 | x6 | x6 |!8va(! x6!8va)! | x6 | x6 | x6 | %676
 x6 |[K:bass] x6 | x6 |[K:treble] x6 | x6 | x6 |!8va(! x6!8va)! | x6 | x6 | x6 | x6 | x6 | x6 | %689
 x6 | x6 | x6 ||[K:D] x6 | x6 | x6 | x6 | x6 | x6 | x6 | x6 | x6 | x6 | x6 | x6 | x6 | x6 | x6 | %707
 x6 | x6 | x6 | x6 | x6 | x6 | x6 | x6 | x6 | x6 | x6 | x6 | x6 | x6 ||[K:C] x7/2[K:bass] x5/2 | %722
 x6 |[K:treble] x6 | x7/2[K:bass] x5/2 | x6 |[K:treble] x6 | x6 | x6 | x6 | x6 | x6 | x6 | x6 | %734
 x6 | x6 | x6 | x6 | x6 | x6 | x6 | x6 | x6 | x6 | x6 | x6 | x6 | x6 | x6 | x6 | x6 | x6 | x6 || %753
[K:D] x2[K:bass] x4 | x6 |] %755
V:5
!8vb(! x6 | x6 | x6 | x6 | x6 | x6 | x6 | x6 | x6 | x6 | x6 | x6 | x6 | x6 | x6 | x6 | x6 | x6 | %18
 x6 | x6 | x6 | x6 | x6 | x6 | x6 | x6 | x6 | x6 | x6 | x6 | x6 | x6 | x6 | x6 | x6 | x6 | x6 | %37
 x3!8vb)! x3 | x6 | x6 | x6 | x6 | x6 | x6 | x6 | x6 | x6 | x6 | x6 | x6 | x6 | x6 | x6 | x6 | x6 | %55
 x6 | x6 | x6 | x6 | x6 | x6 | x6 | x6 | x6 | x6 ||[K:D] x6 | x6 | x6 | x6 | x6 | x6 | x6 | x6 | %73
 x6 | x6 | x6 | x6 | x6 | x6 | x6 | x6 | x6 | x6 | x6 | x6 | x6 | x6 | x6 | x6 | x6 | x6 | x6 | %92
 x6 | x6 | x6 | x6 | x6 | x6 | x6 | x6 | x6 | x6 | x6 | x6 | x2[K:treble] x4 |[K:bass] x6 | x6 | %107
 x6 | x6 | x6 | x6 | x6 | x6 | x6 | x6 | x6 | x6 | x6 | x6 | x6 | x6 | x6 | x6 | x6 | x6 | x6 | %126
 x6 | x6 | x6 | x6 | x6 | x6 | x6 | x6 | x6 | x6 | x6 | x6 | x6 | x6 | x6 | x6 | x6 | x6 | x6 | %145
 x6 | x6 | x6 | x6 | x6 | x6 | x6 | x6 | x6 | x6 | x6 | x6 | x6 | x6 | x6 | x6 | x6 | x6 | x6 | %164
 x6 | x6 | x6 | x6 | x6 | x6 | x6 | x6 | x6 | x6 | x6 | x6 | x6 | x6 ||[K:C] x6 | x6 | %180
 x4[K:treble] x2 | x6 |[K:bass] x6 | x6 | x4[K:treble] x2 | x6 |[K:bass] x6 | x6 | x6 | x6 | x6 | %191
 x6 | x6 | x6 | x6 | x6 | x4[K:treble] x2 | x6 |[K:bass] x6 | x6 | x6 |[K:treble] x6 || %202
[K:D][K:bass] x6 | x6 | x6 | x6 | x6 | x6 | x6 | x6 ||[K:Bb]!8vb(! x2!8vb)! x4 | x6 | x6 | x6 | %214
 x6 |[K:treble] x6 |[K:bass]!8vb(! x2!8vb)! x4 | x6 | x6 | x6 | x6 |[K:treble] x6 |[K:bass] x6 | %223
 x6 | x6 | x6 |!8vb(! x2!8vb)! x4 | x6 | x6 | x6 | x6 |[K:treble] x6 |[K:bass]!8vb(! x2!8vb)! x4 | %233
 x6 | x6 | x6 | x6 | x6 | x6 | x6 | x6 | x6 ||[K:Eb] x6 | x6 | x6 | x6 | x6 | x6 | x6 | x6 | x6 | %251
 x6 | x6 | x6 | x6 | x6 | x6 | x6 | x6 | x6 | x6 | x6 | x6 | x6 | x6 | x6 | x6 | x6 | x6 | x6 | %270
 x6 | x6 | x6 | x6 ||[K:F] x6 | x6 | x6 | x6 | x6 | x6 | x6 | x6 | x6 | x6 | x6 | x6 | %286
 z2 [G,C]2 [G,C]2 | z2 [G,C]2 [G,C]2 | x6 | x6 || x6 | x6 | x6 | x6 | x6 | x6 | x6 | x6 | x6 | x6 | %300
 x6 | x6 | x6 | x6 | x6 | x6 | x6 |[K:treble] x6 | x6 | x6 |[K:bass] x6 |[K:treble] x6 | x6 | %313
[K:bass] x6 | x6 |[K:treble] x6 | x6 | x6 |[K:bass] x6 |[K:treble] x6 | x6 | x6 | x6 |[K:bass] x6 | %324
 x6 | x6 | x6 | x6 | x6 | x6 ||[K:D] x6 | x6 | x6 | x6 | x6 | x6 | x6 | x6 | x6 | x6 | x6 | x6 | %342
 x6 | x6 | x6 | x6 ||[K:F] x6 | x6 | x6 | x6 | x6 | x6 | x6 | x6 | x6 | x6 | x6 | x6 | x6 | x6 | %360
 x6 | x2[K:treble] x4 ||[K:D][K:bass] x6 | x6 | x6 | x6 | x6 | x6 | x6 | x6 ||[K:Bb] x6 | x6 | x6 | %373
 x6 | x6 | x6 | x6 | x6 | x6 | x6 | x6 | x6 | x6 | x6 | x6 | x6 ||[K:Db] x6 | x6 | x6 | x6 | x6 | %391
 x6 | x6 | x6 | x6 | x6 | x6 | x6 ||[K:C] x6 | x6 | x6 | x6 | x6 ||[K:A][K:treble] x6 | x6 | x6 | %406
 x6 | x6 | x6 | x6 |[K:bass] x2[K:treble] x4 | x6 |[K:bass] x103/60[K:treble] x103/24 | x6 | x6 | %415
 x6 | x6 | x6 | x6 | x6 |[K:bass] x2[K:treble] x4 | x6 ||[K:C][K:bass] x6 |[K:treble] x6 | x6 | %425
 x6 |[K:bass] x2[K:treble] x4 | x6 |[K:bass] x2[K:treble] x4 | x6 |[K:bass] x2[K:treble] x4 | x6 | %432
[K:bass] x6 | x6 | x6 | x6 |[K:treble] x6 | x6 | x6 | x4/3[K:bass] x14/3 |!8vb(! x6 | x6 | x6 | %443
 x6 | x6 | x6 | x6 | x6 | x6 | x6 | x6 | x6 | x6 | x6 | x6 | x6 | x9/4!8vb)! x15/4 | x6 | x6 | x6 | %460
 x6 | x6 | x6 | x6 | x6 | x6 | x6 | x6 | x6 | x6 | x6 | x6 ||[K:A] x6 | x6 | x6 | x6 | x6 | x6 | %478
 x6 | x6 | x6 | x6 | x6 | x6 | x6 | x6 | x6 | x6 | x6 |[K:treble] x6 | x6 |[K:bass] x6 | x6 | x6 | %494
 x6 | x6 | x6 | x6 | x6 | x6 ||[K:C] x6 | x6 | x6 | x6 | x6 | x6 | x6 | x6 | x6 | x6 | x6 | x6 | %512
 x6 | x6 | x6 | x6 | x6 | x6 | x6 | x6 ||[K:Eb] x6 | x6 | x6 | x6 | x6 | x6 | x6 | x6 | x6 | x6 || %530
[K:Db] x6 | x6 | x6 | x6 | x6 | x6 |[K:treble] x6 | x6 |[K:bass] x6 | x6 | x6 | x6 | x6 | x6 || %544
[K:C] x6 | x6 | x6 | x6 | x6 | x2[K:treble] x4 |[K:bass] x[K:treble] x5 |[K:bass] x6 | x6 | x6 | %554
 x6 | x6 | x6 | x6 | x6 | x6 | x6 | x6 | x6 | x6 | x6 | x6 | x6 | x6 | x6 | x6 | x6 | x6 | x6 | %573
 x6 | x6 | x6 |!8vb(! x6 | x6!8vb)! ||[K:D] x6 | x6 | x6 | x6 | x6 | x2 !>!^A,,4 | x2 !>!^A,,4 | %585
 x2 !>!^A,,4 | x2 !>!^A,,4 | x6 | x6 | x6 | x6 | x6 | x6 | x6 | x6 | x6 | x6 | x6 | x6 | x6 | x6 | %601
 x6 | x6 | x6 | x6 | x6 | x6 | x6 ||[K:Db] x6 | x6 | x4 =D,2 | x4 E,2 | x4 _F,2 | x4 G,2 | %614
 x4 =G,2 | x6 | x6 | x6 | x6 | x6 | x6 | x6 | x6 | x6 ||[K:E] x2[K:treble] x4 | %625
[K:bass] x2[K:treble] x4 |[K:bass] x2[K:treble] x4 |[K:bass] x2[K:treble] x4 | %628
[K:bass] x2[K:treble] x4 |[K:bass] x2[K:treble] x4 |[K:bass] x2[K:treble] x4 | %631
[K:bass] x2[K:treble] x4 |[K:bass] x2[K:treble] x4 |[K:bass] x2[K:treble] x4 | %634
[K:bass] x2[K:treble] x4 |[K:bass] x2[K:treble] x4 |[K:bass] x6 | x6 | x6 |[K:treble] x6 | x6 | %641
 x6 | x6 | x6 ||[K:F][K:bass] x2!8vb(! x2!8vb)! x2 | x6 | x6 | x6 | x6 |!8vb(! x2!8vb)! x4 | x6 | %651
 x6 | x6 | x6 | x6 | x6 | x6 | x6 | x6 ||[K:C] x6 | x6 | x6 | x6 | x6 | z2 C,2 x2 | x6 | %666
 z2 C,2 x2 | x!8vb(! x5!8vb)! | x6 | x6 | x4[K:treble] x2 | x4[K:bass] x2 | x6 | x6 | z2 E,2 x2 | %675
 x6 | z2 E,2 x2 | x6 | x6 | x6 | x6 | x6 | x6 | x6 | z2 =G,2 z2 | x7/2[K:treble] x5/2 | %686
[K:bass] x6 | x6 | x6 | x6 | x6 | x6 ||[K:D] x6 | x6 | x6 | x6 | x6 | x6 | x6 | x6 | x6 | x6 | x6 | %703
 x6 | x6 | x6 | x6 | x6 | x6 | x6 | x6 | x6 | x6 | x6 | x6 | x6 | x6 | x6 | x6 | x6 | x6 || %721
[K:C] x6 |!8vb(! x2!8vb)! x4 | x6 | x6 |!8vb(! x2!8vb)! x4 | x6 | x6 | x6 | x6 | %730
!8vb(! x2!8vb)! x4 | x6 | x6 |!8vb(! x2!8vb)! x4 | x6 | x6 | x6 | x6 | x6 | x6 | x6 | x6 | x6 | %743
 x6 | x6 | x6 | x6 | x6 | x6 | x6 | x6 | x6 | x6 ||[K:D] x6 | x6 |] %755
V:6
 x6 | x6 | x6 | x6 | x6 | x6 | x6 | x6 | x6 | x6 | x6 | x6 | x6 |[K:treble] x6 | x2[K:bass] x4 | %15
 x6 | x6 | x6 | x6 | x6 | x6 | x6 | x6 | x6 | x6 |[K:treble] x6 | x2[K:bass] x4 | x6 | x6 | x6 | %30
 x6 | x6 | x6 | x6 | x6 | x6 | x6 | x6 | x6 | x6 | x6 | x6 | x6 |[K:treble] x6 | x3[K:bass] x3 | %45
 x6 | x3[K:treble] x3 | x6 | x6 | x6 | x6 | x6 | x6 | x6 | x6 | x6 |[K:bass] x6 |[K:treble] x6 | %58
[K:bass] x6 | x6 | x6 | x6 | x6 | x6 | x6 ||[K:D] x6 | x6 | x6 | x6 | x6 | x6 | x6 | x6 | x6 | x6 | %75
 x6 | x6 | x6 | x6 | x6 | x6 | x6 | x6 | x6 | x6 | x6 | x6 | x6 | x6 | x6 | x6 | x6 | x6 | x6 | %94
 x6 | x6 | x6 |[K:treble] x6 | x6 | x6 | x6 | x6 | x6 | x6 |[K:bass] x4[K:treble] x2 | x6 | x6 | %107
 x6 | x6 | x6 | x6 | x6 | x6 | x6 | x6 | x6 | x6 | x6 | x6 | x6 | x6 | x6 | x6 | x6 | x6 | x6 | %126
 x6 | x6 | x6 | x6 | x6 | x6 | x6 | x6 | x6 | x6 | x6 | x6 | x6 | x6 | x6 | x6 | x6 | x6 | x6 | %145
 x6 | x6 | x6 | x6 | x6 | x6 | x6 | x6 | x6 | x6 | x6 | x6 | x6 | x6 | x6 | x6 | x6 | x6 | x6 | %164
 x6 | x6 | x6 | x6 | x6 | x6 | x6 | x6 | x6 | x6 | x6 | x6 | x6 | x6 ||[K:C] x6 | x6 | x6 | x6 | %182
 x6 | x6 | x6 | x6 | x6 | x6 | x6 | x6 | x6 | x6 | x6 | x6 | x6 | x6 | x6 | x6 | x6 | x6 | x6 | %201
 x6 ||[K:D] x6 | x6 | x6 | x6 | x6 | x6 | x6 | x6 ||[K:Bb] x6 | x6 | x6 | x6 | x6 | x6 | %216
 x2!8va(! x4 | x6 | x6 | x6 | x6 | x6 | x6!8va)! | x6 | x6 | x6 | x6 | x6 | x6 | x6 | x6 | x6 | %232
 x2!8va(! x4 | x6 | x6 | x6 | x6 | x6!8va)! | x6 | x6 | x6 | x6 ||[K:Eb] x6 | x6 | x6 | x6 | x6 | %247
 x6 | x6 | x6 | x6 | x6 | x6 | x6 | x6 | x6 | x6 | x6 | x6 | x6 | x6 | x6 | x6 | x6 | x6 | x6 | %266
 x6 | x6 | x6 | x6 | x6 | x6 | x6 | x6 ||[K:F] x6 | x6 | x6 | x6 | x6 | x6 | x6 | x6 | x6 | x6 | %284
 x6 | x6 | x6 | x6 | x6 | x6 ||!8va(! x3!8va)! x3 | x6 | x6 | x6 |!8va(! x3!8va)! x3 | x6 | x6 | %297
 x6 |!8va(! x3!8va)! x3 | x6 | x6 | x6 |!8va(! x3!8va)! x3 | x6 | x6 | x6 | x6 | x6 | x6 | x6 | %310
 x6 | x6 |!8va(! x6!8va)! | x6 | x6 | x6 | x6 | x6 | x6 | x6 | x6 | x6 | x6 | x6 | x6 | %325
[K:bass] x6 | x6 | x6 | x6 | x6 ||[K:D] x6 | x6 | x6 | x6 | x6 | x4[K:treble] x2 | x6 | %337
 x4[K:bass] x2 | x6 | x6 | x6 | x6 | x6 | x6 | x6 | x4[K:treble] x2 ||[K:F] x6 | x6 | x6 | x6 | %350
 x6 | x6 | x6 | x6 | x6 | x6 | x6 | x6 | x6 | x6 | x6 | x4!8va(! x2 ||[K:D] x6 | x6 | x6 | %365
 x4!8va)! x2 | x6 | x6 | x6 | x6 ||[K:Bb] x6 | x6 | x6 | x6 | x6 | x6 | x6 | x6 | x6 | x6 | x6 | %381
 x6 | x6 | x6 | x6 | x6 ||[K:Db] x6 | x6 | x6 | x6 | x6 | x6 | x6 | x6 | x6 | x6 | x6 | x6 || %398
[K:C] x6 | x6 | x6 |!8va(! x6 | x6!8va)! ||[K:A] x6 | x6 | x6 | x6 | x6 | x6 | x6 | x6 | x6 | x6 | %413
 x6 | x6 | x6 | x6 | x6 |!8va(! x6!8va)! | x6 | x6 | x6 ||[K:C] x6 | x6 | x6 | x6 | x6 | x6 | x6 | %429
 x6 | x6 | x6 | x6 | x6 | x6 | x6 | x6 | x6 |!8va(! x4!8va)! x2 | x4[K:bass] x2 | x6 | x6 | x6 | %443
[K:treble] x6 | x2[K:bass] x4 | x6 | x6 | x6 |[K:treble] x6 | x6 | x6 | x6 |[K:bass] x6 | x6 | x6 | %455
 x6 | x6 | x6 | x6 | x6 | x6 |[K:treble] x6 | x6 | x6 | x6 | x6 | x6 | x3[K:bass] x3 | x6 | %469
[K:treble] x6 | x6 | x6 ||[K:A] x6 | x6 | x6 | x6 | x6 | x6 | x3[K:bass] x3 | x6 | x6 | x6 | x6 | %483
 x6 |[K:treble] x6 | x6 | x6 | x6 | x6 | x6 | x6 | x6 | x6 | x6 | x6 | x6 | x6 | x6 | x6 | x6 || %500
[K:C] x6 | x6 | x6 | x6 | x6 | x6 | x6 | x6 | x6 | x6 | x6 | x6 | x6 | x6 | x6 | x6 | x6 | x6 | %518
!8va(! x6 | x6!8va)! ||[K:Eb] x6 | x6 | x6 | x6 |[K:bass] x6 |[K:treble] x6 | x6 | x6 | x6 | x6 || %530
[K:Db] x6 | x6 |[K:bass] x6 |[K:treble] x6 | x6 |[K:bass] x6 |[K:treble] x6 | x6 | x6 | x6 | %540
 x2!8va(! x4 | x6 | x6!8va)! | x6 ||[K:C] x6 | x6 | x6 | x6 | x6 | x6 | x6 | x6 |!8va(! x6 | x6 | %554
 x6 | x6 | x2!8va)! x4 | x6 | x6 | x6 | x6 | x6 | x6 | x6 |[K:bass] x6 | x6 | x6 | x6 | x6 | x6 | %570
 x6 | x6 | x6 | x6 | x6 | x6 | x6 | x6 ||[K:D] x6 | x6 | x6 | x6 | x6 | x6 | x6 | x6 | x6 | x6 | %588
 x6 | x6 | x6 | x6 | x6 | x6 | x6 | x6 | x6 | x6 | x6 | x4[K:treble] x2 | x6 | x6 | x6 | x6 | x6 | %605
 x6 | x6 | x6 ||[K:Db] x6 | x6 | x6 | x6 | x6 | x6 | x6 | x6 | x6 | x6 | x6 | x6 | x6 | x6 | x6 | %623
 x6 ||[K:E] x6 | x6 | x6 | x4!8va(! x2 | x6 | x6 | x6 | x6 | x6 | x6 | x6 | x6 | x6 | x6 | x6 | %639
 x6 | x6 | x6 | x6 | x6!8va)! ||[K:F] x6 | x6 | x6 |[K:treble] x6 | x6 | x6 | x6 | x6 | x6 | x6 | %654
 x6 |[K:bass] x6 | x6 | x4[K:treble] x2 |[K:bass] x6 ||[K:C][K:treble] x6 | x6 | x6 | x6 | x6 | %664
 x6 | x6 | x6 |[K:bass] x6 | x6 |[K:treble] x6 | x6 | x6 |!8va(! x6!8va)! | x6 | x6 | x6 | x6 | %677
[K:bass] x6 | x6 |[K:treble] x6 | x6 | x6 |!8va(! x6!8va)! | x6 | x6 | x6 | x6 | x6 | x6 | x6 | %690
 x6 | x6 ||[K:D] x6 | x6 | x6 | x6 | x6 | x6 | x6 | x6 | x6 | x6 | x6 | x6 | x6 | x6 | x6 | x6 | %708
 x6 | x6 | x6 | x6 | x6 | x6 | x6 | x6 | x6 | x6 | x6 | x6 | x6 ||[K:C] x7/2[K:bass] x5/2 | x6 | %723
[K:treble] x6 | x7/2[K:bass] x5/2 | x6 |[K:treble] x6 | x6 | x6 | x6 | x6 | x6 | x6 | x6 | x6 | %735
 x6 | x6 | x6 | x2 d'4 | x6 | x2 d'4 | x6 | x6 | x6 | x6 | x6 | x6 | x6 | x6 | x6 | x6 | x6 | x6 || %753
[K:D] x2[K:bass] x4 | x6 |] %755

